;FLAVOR:Marlin
;TIME:2355
;Filament used: 1.3928m
;Layer height: 0.2
;MINX:70
;MINY:83.749
;MINZ:0.2
;MAXX:150
;MAXY:136.251
;MAXZ:6.4
;TARGET_MACHINE.NAME:Creality Ender-5
;Generated with Cura_SteamEngine 5.12.0
M140 S75
M105
M190 S75
M104 S240
M105
M109 S240
M201 X500.00 Y500.00 Z100.00 E5000.00 ;Setup machine max acceleration
M203 X500.00 Y500.00 Z10.00 E50.00 ;Setup machine max feedrate
M204 P500.00 R1000.00 T500.00 ;Setup Print/Retract/Travel acceleration
M205 X8.00 Y8.00 Z0.40 E5.00 ;Setup Jerk
M220 S100 ;Reset Feedrate
M221 S100 ;Reset Flowrate

G28 ;Home

G92 E0 ;Reset Extruder
G1 Z2.0 F3000 ;Move Z Axis up
G1 X210 Y20 Z0.28 F5000.0 ;Move to start position
G1 X210 Y200.0 Z0.28 F1500.0 E15 ;Draw the first line
G1 X209.7 Y200.0 Z0.28 F5000.0 ;Move to side a little
G1 X209.7 Y20 Z0.28 F1500.0 E30 ;Draw the second line
G92 E0 ;Reset Extruder
G1 Z2.0 F3000 ;Move Z Axis up
M82 ;absolute extrusion mode
G92 E0
G92 E0
G1 F2100 E-1.5
;LAYER_COUNT:32
;LAYER:0
M107
G0 F7500 X74.179 Y86.387 Z0.2
;TYPE:SKIRT
G1 F2100 E0
G1 F1500 X74.998 Y85.797 E0.03357
G1 X75.837 Y85.301 E0.06599
G1 X76.651 Y84.91 E0.09602
G1 X77.628 Y84.542 E0.13075
G1 X78.532 Y84.292 E0.16194
G1 X79.534 Y84.109 E0.19582
G1 X80.705 Y84.013 E0.2349
G1 X81.312 Y84 E0.25509
G1 X116.892 Y84 E1.43849
G1 X119.476 Y83.963 E1.52444
G1 X122.042 Y83.856 E1.60986
G1 X123.499 Y83.777 E1.65839
G1 X124.97 Y83.75 E1.70733
G1 X127.342 Y83.749 E1.78622
G1 X128.472 Y83.77 E1.82381
G1 X131.122 Y83.917 E1.91209
G1 X135.068 Y84 E2.04336
G1 X138.451 Y84.001 E2.15588
G1 X139.184 Y84.013 E2.18026
G1 X140.156 Y84.072 E2.21265
G1 X141.119 Y84.218 E2.24504
G1 X142.066 Y84.449 E2.27747
G1 X142.954 Y84.749 E2.30864
G1 X143.846 Y85.139 E2.34102
G1 X144.729 Y85.626 E2.37456
G1 X145.48 Y86.128 E2.4046
G1 X146.295 Y86.786 E2.43944
G1 X146.993 Y87.464 E2.47181
G1 X147.629 Y88.201 E2.50419
G1 X148.199 Y88.991 E2.53659
G1 X148.661 Y89.767 E2.56663
G1 X149.115 Y90.709 E2.60141
G1 X149.444 Y91.587 E2.63259
G1 X149.713 Y92.559 E2.66613
G1 X149.89 Y93.525 E2.6988
G1 X149.985 Y94.655 E2.73652
G1 X150 Y95.33 E2.75897
G1 X149.999 Y106.843 E3.1419
G1 X149.971 Y108.817 E3.20756
G1 X149.971 Y111.44 E3.2948
G1 X149.999 Y112.801 E3.34008
G1 X150 Y124.274 E3.72167
G1 X149.987 Y125.177 E3.75171
G1 X149.929 Y126.15 E3.78413
G1 X149.783 Y127.113 E3.81652
G1 X149.552 Y128.06 E3.84894
G1 X149.239 Y128.982 E3.88133
G1 X148.847 Y129.873 E3.9137
G1 X148.395 Y130.695 E3.9449
G1 X147.833 Y131.533 E3.97846
G1 X147.243 Y132.263 E4.00968
G1 X146.54 Y132.989 E4.04329
G1 X145.804 Y133.625 E4.07565
G1 X145.014 Y134.195 E4.10805
G1 X144.238 Y134.658 E4.1381
G1 X143.298 Y135.111 E4.17281
G1 X142.385 Y135.453 E4.20523
G1 X141.447 Y135.712 E4.2376
G1 X140.481 Y135.889 E4.27026
G1 X139.345 Y135.985 E4.30818
G1 X138.688 Y136 E4.33004
G1 X135.108 Y136 E4.44911
G1 X132.524 Y136.037 E4.53506
G1 X129.958 Y136.144 E4.62048
G1 X128.501 Y136.223 E4.66902
G1 X127.03 Y136.25 E4.71795
G1 X124.658 Y136.251 E4.79684
G1 X123.528 Y136.23 E4.83443
G1 X120.878 Y136.083 E4.92271
G1 X116.932 Y136 E5.05398
G1 X81.549 Y135.999 E6.23082
G1 X80.816 Y135.987 E6.25521
G1 X79.844 Y135.928 E6.2876
G1 X78.881 Y135.782 E6.31999
G1 X77.934 Y135.551 E6.35241
G1 X77.046 Y135.251 E6.38359
G1 X76.154 Y134.861 E6.41597
G1 X75.271 Y134.374 E6.44951
G1 X74.52 Y133.872 E6.47955
G1 X73.705 Y133.214 E6.51439
G1 X73.007 Y132.536 E6.54675
G1 X72.371 Y131.799 E6.57913
G1 X71.801 Y131.009 E6.61153
G1 X71.339 Y130.233 E6.64157
G1 X70.885 Y129.291 E6.67635
G1 X70.556 Y128.413 E6.70754
G1 X70.287 Y127.44 E6.74111
G1 X70.11 Y126.473 E6.77381
G1 X70.014 Y125.308 E6.81269
G1 X70 Y124.658 E6.83431
G1 X70.001 Y95.509 E7.80381
G1 X70.013 Y94.808 E7.82713
G1 X70.073 Y93.835 E7.85956
G1 X70.22 Y92.874 E7.89189
G1 X70.451 Y91.926 E7.92434
G1 X70.753 Y91.037 E7.95557
G1 X71.16 Y90.115 E7.98909
G1 X71.631 Y89.263 E8.02147
G1 X72.176 Y88.454 E8.05392
G1 X72.767 Y87.726 E8.0851
G1 X73.469 Y87.001 E8.11867
G1 X74.179 Y86.387 E8.14989
G0 F7500 X74.441 Y86.69
G1 F1500 X75.202 Y86.141 E8.1811
G1 X76.01 Y85.662 E8.21234
G1 X76.824 Y85.271 E8.24238
G1 X77.735 Y84.928 E8.27475
G1 X78.639 Y84.678 E8.30595
G1 X79.567 Y84.508 E8.33733
G1 X80.714 Y84.413 E8.37561
G1 X81.321 Y84.4 E8.3958
G1 X116.898 Y84.4 E9.5791
G1 X119.493 Y84.363 E9.66541
G1 X122.059 Y84.255 E9.75084
G1 X123.506 Y84.177 E9.79903
G1 X124.97 Y84.15 E9.84773
G1 X127.335 Y84.149 E9.92639
G1 X128.45 Y84.169 E9.96349
G1 X131.114 Y84.317 E10.05223
G1 X135.06 Y84.4 E10.1835
G1 X138.445 Y84.401 E10.29609
G1 X139.16 Y84.412 E10.31987
G1 X140.097 Y84.468 E10.35109
G1 X141.025 Y84.607 E10.3823
G1 X141.938 Y84.828 E10.41354
G1 X142.794 Y85.116 E10.44358
G1 X143.686 Y85.506 E10.47596
G1 X144.507 Y85.959 E10.50715
G1 X145.258 Y86.461 E10.53719
G1 X146.017 Y87.073 E10.56962
G1 X146.691 Y87.726 E10.60084
G1 X147.305 Y88.435 E10.63203
G1 X147.855 Y89.196 E10.66326
G1 X148.317 Y89.972 E10.6933
G1 X148.74 Y90.849 E10.72568
G1 X149.069 Y91.727 E10.75687
G1 X149.32 Y92.632 E10.7881
G1 X149.491 Y93.559 E10.81946
G1 X149.586 Y94.689 E10.85717
G1 X149.6 Y95.33 E10.8785
G1 X149.599 Y106.837 E11.26122
G1 X149.571 Y108.811 E11.32689
G1 X149.571 Y111.44 E11.41433
G1 X149.599 Y112.801 E11.4596
G1 X149.6 Y124.269 E11.84103
G1 X149.588 Y125.154 E11.87047
G1 X149.533 Y126.091 E11.90169
G1 X149.394 Y127.019 E11.9329
G1 X149.173 Y127.932 E11.96414
G1 X148.873 Y128.821 E11.99535
G1 X148.496 Y129.68 E12.02655
G1 X148.044 Y130.502 E12.05775
G1 X147.521 Y131.282 E12.08898
G1 X146.955 Y131.985 E12.119
G1 X146.278 Y132.687 E12.15144
G1 X145.57 Y133.301 E12.18261
G1 X144.809 Y133.851 E12.21384
G1 X144.033 Y134.314 E12.24389
G1 X143.157 Y134.737 E12.27625
G1 X142.278 Y135.068 E12.30749
G1 X141.374 Y135.319 E12.33869
G1 X140.447 Y135.49 E12.37004
G1 X139.311 Y135.586 E12.40796
G1 X138.679 Y135.6 E12.42899
G1 X135.102 Y135.6 E12.54796
G1 X132.507 Y135.637 E12.63428
G1 X129.941 Y135.745 E12.7197
G1 X128.494 Y135.823 E12.7679
G1 X127.03 Y135.85 E12.8166
G1 X124.665 Y135.851 E12.89526
G1 X123.55 Y135.831 E12.93235
G1 X120.886 Y135.683 E13.02109
G1 X116.94 Y135.6 E13.15236
G1 X81.555 Y135.599 E14.32927
G1 X80.84 Y135.588 E14.35306
G1 X79.903 Y135.532 E14.38428
G1 X78.975 Y135.393 E14.41549
G1 X78.062 Y135.172 E14.44673
G1 X77.206 Y134.884 E14.47677
G1 X76.314 Y134.494 E14.50915
G1 X75.493 Y134.041 E14.54034
G1 X74.742 Y133.539 E14.57038
G1 X73.983 Y132.927 E14.60281
G1 X73.309 Y132.274 E14.63402
G1 X72.695 Y131.565 E14.66522
G1 X72.145 Y130.804 E14.69645
G1 X71.683 Y130.028 E14.72649
G1 X71.26 Y129.151 E14.75887
G1 X70.931 Y128.273 E14.79006
G1 X70.68 Y127.368 E14.82129
G1 X70.509 Y126.44 E14.85268
G1 X70.413 Y125.275 E14.89156
G1 X70.4 Y124.658 E14.91208
G1 X70.401 Y95.515 E15.88138
G1 X70.412 Y94.832 E15.9041
G1 X70.469 Y93.895 E15.93533
G1 X70.609 Y92.968 E15.96651
G1 X70.83 Y92.055 E15.99775
G1 X71.132 Y91.166 E16.02898
G1 X71.51 Y90.308 E16.06016
G1 X71.963 Y89.486 E16.09138
G1 X72.487 Y88.706 E16.12263
G1 X73.078 Y87.978 E16.15382
G1 X73.731 Y87.304 E16.18503
G1 X74.441 Y86.69 E16.21625
G0 F7500 X74.675 Y87.014
G1 F1500 X75.407 Y86.485 E16.24629
G1 X76.183 Y86.023 E16.27633
G1 X76.997 Y85.632 E16.30636
G1 X77.842 Y85.313 E16.33641
G1 X78.712 Y85.071 E16.36644
G1 X79.6 Y84.907 E16.39647
G1 X80.723 Y84.813 E16.43396
G1 X81.33 Y84.8 E16.45415
G1 X116.904 Y84.8 E17.63735
G1 X119.51 Y84.763 E17.72403
G1 X122.076 Y84.654 E17.80945
G1 X123.513 Y84.577 E17.85732
G1 X124.97 Y84.55 E17.90578
G1 X127.328 Y84.549 E17.98421
G1 X128.428 Y84.568 E18.0208
G1 X131.106 Y84.717 E18.11001
G1 X135.052 Y84.8 E18.24129
G1 X138.439 Y84.801 E18.35394
G1 X139.137 Y84.811 E18.37716
G1 X140.039 Y84.864 E18.40721
G1 X140.932 Y84.996 E18.43723
G1 X141.81 Y85.207 E18.46727
G1 X142.666 Y85.495 E18.49731
G1 X143.493 Y85.857 E18.52733
G1 X144.285 Y86.292 E18.55738
G1 X145.036 Y86.794 E18.58743
G1 X145.739 Y87.361 E18.61747
G1 X146.389 Y87.988 E18.64751
G1 X146.981 Y88.67 E18.67754
G1 X147.511 Y89.401 E18.70758
G1 X147.973 Y90.177 E18.73761
G1 X148.366 Y90.99 E18.76765
G1 X148.684 Y91.835 E18.79768
G1 X148.927 Y92.705 E18.82772
G1 X149.092 Y93.593 E18.85776
G1 X149.187 Y94.723 E18.89548
G1 X149.2 Y95.33 E18.91567
G1 X149.199 Y106.831 E19.2982
G1 X149.171 Y108.805 E19.36386
G1 X149.171 Y111.44 E19.4515
G1 X149.199 Y112.801 E19.49677
G1 X149.2 Y124.264 E19.87804
G1 X149.189 Y125.131 E19.90687
G1 X149.137 Y126.033 E19.93692
G1 X149.005 Y126.926 E19.96695
G1 X148.794 Y127.805 E19.99702
G1 X148.507 Y128.661 E20.02704
G1 X148.145 Y129.488 E20.05707
G1 X147.711 Y130.28 E20.08711
G1 X147.209 Y131.031 E20.11715
G1 X146.643 Y131.734 E20.14717
G1 X146.016 Y132.385 E20.17723
G1 X145.335 Y132.977 E20.20724
G1 X144.604 Y133.507 E20.23728
G1 X143.828 Y133.97 E20.26733
G1 X143.015 Y134.363 E20.29736
G1 X142.17 Y134.683 E20.32742
G1 X141.301 Y134.926 E20.35743
G1 X140.413 Y135.091 E20.38747
G1 X139.277 Y135.187 E20.42539
G1 X138.67 Y135.2 E20.44558
G1 X135.096 Y135.2 E20.56445
G1 X132.49 Y135.237 E20.65114
G1 X129.924 Y135.346 E20.73656
G1 X128.487 Y135.423 E20.78442
G1 X127.03 Y135.45 E20.83289
G1 X124.672 Y135.451 E20.91132
G1 X123.572 Y135.432 E20.94791
G1 X120.894 Y135.283 E21.03712
G1 X116.948 Y135.2 E21.16839
G1 X81.561 Y135.199 E22.34537
G1 X80.863 Y135.189 E22.36859
G1 X79.961 Y135.136 E22.39864
G1 X79.068 Y135.004 E22.42866
G1 X78.19 Y134.793 E22.4587
G1 X77.334 Y134.505 E22.48874
G1 X76.507 Y134.143 E22.51876
G1 X75.715 Y133.708 E22.54882
G1 X74.964 Y133.206 E22.57886
G1 X74.261 Y132.639 E22.6089
G1 X73.611 Y132.012 E22.63894
G1 X73.019 Y131.33 E22.66897
G1 X72.489 Y130.599 E22.69901
G1 X72.027 Y129.823 E22.72904
G1 X71.634 Y129.01 E22.75908
G1 X71.316 Y128.165 E22.78911
G1 X71.073 Y127.295 E22.81915
G1 X70.908 Y126.407 E22.84919
G1 X70.813 Y125.266 E22.88727
G1 X70.8 Y124.658 E22.9075
G1 X70.801 Y95.521 E23.8766
G1 X70.811 Y94.856 E23.89872
G1 X70.865 Y93.954 E23.92877
G1 X70.998 Y93.061 E23.9588
G1 X71.209 Y92.183 E23.98884
G1 X71.498 Y91.327 E24.01889
G1 X71.861 Y90.5 E24.04893
G1 X72.295 Y89.709 E24.07893
G1 X72.798 Y88.958 E24.109
G1 X73.366 Y88.256 E24.13903
G1 X73.993 Y87.606 E24.16907
G1 X74.675 Y87.014 E24.19911
G1 F2100 E22.69911
;MESH:Base Lid.stl
G0 F7500 X81.424 Y94.335
G0 X81.424 Y95.424
G0 X82.572 Y123.428
G0 X110 Y123.6
;TYPE:WALL-INNER
G1 F2100 E24.19911
G1 F1200 X137.6 Y123.6 E25.11709
G1 X137.6 Y113.749 E25.44473
G1 X137.093 Y113.514 E25.46332
G1 X136.872 Y113.386 E25.47181
G1 X136.414 Y113.059 E25.49053
G1 X135.91 Y112.549 E25.51438
G1 X135.543 Y112.008 E25.53612
G1 X135.241 Y111.387 E25.55909
G1 X135.05 Y110.67 E25.58377
G1 X134.991 Y109.999 E25.60617
G1 X135.056 Y109.289 E25.62989
G1 X135.25 Y108.604 E25.65357
G1 X135.544 Y107.982 E25.67645
G1 X135.917 Y107.439 E25.69836
G1 X136.334 Y107.018 E25.71807
G1 X136.527 Y106.856 E25.72645
G1 X136.996 Y106.533 E25.74539
G1 X137.6 Y106.256 E25.76749
G1 X137.6 Y96.4 E26.0953
G1 X82.4 Y96.4 E27.93126
G1 X82.4 Y123.6 E28.83594
G1 X108.75 Y123.6 E29.71234
G0 F1080 X110 Y123.6
G0 F7500 X110 Y124
G1 F1200 X138 Y124 E30.64362
G1 X138 Y113.445 E30.99469
G1 X137.665 Y113.339 E31.00637
G1 X137.174 Y113.11 E31.02439
G1 X136.669 Y112.75 E31.04502
G1 X136.255 Y112.332 E31.06459
G1 X135.889 Y111.808 E31.08585
G1 X135.607 Y111.213 E31.10775
G1 X135.455 Y110.641 E31.12743
G1 X135.392 Y109.999 E31.14889
G1 X135.456 Y109.352 E31.17051
G1 X135.625 Y108.742 E31.19156
G1 X135.89 Y108.182 E31.21217
G1 X136.237 Y107.679 E31.23249
G1 X136.679 Y107.237 E31.25328
G1 X137.18 Y106.89 E31.27355
G1 X137.7 Y106.643 E31.2927
G1 X138 Y106.547 E31.30318
G1 X138 Y96 E31.65397
G1 X82 Y96 E33.51654
G1 X82 Y124 E34.44782
G1 X108.75 Y124 E35.33753
G0 F1080 X110 Y124
G0 F7500 X110 Y124.4
G1 F1200 X138.4 Y124.4 E36.28212
G1 X138.397 Y113.142 E36.65656
G1 X137.88 Y112.997 E36.67442
G1 X137.378 Y112.765 E36.69281
G1 X136.899 Y112.413 E36.71259
G1 X136.556 Y112.068 E36.72877
G1 X136.235 Y111.612 E36.74731
G1 X135.983 Y111.077 E36.76698
G1 X135.847 Y110.563 E36.78467
G1 X135.796 Y109.973 E36.80436
G1 X135.848 Y109.433 E36.82241
G1 X136 Y108.88 E36.84148
G1 X136.236 Y108.383 E36.85978
G1 X136.556 Y107.928 E36.87828
G1 X136.936 Y107.546 E36.8962
G1 X137.386 Y107.234 E36.91442
G1 X137.922 Y106.981 E36.93413
G1 X138.398 Y106.854 E36.95052
G1 X138.4 Y95.6 E37.32483
G1 X81.6 Y95.6 E39.214
G1 X81.6 Y124.4 E40.17189
G1 X108.75 Y124.4 E41.07491
G0 F1080 X110 Y124.4
G0 F7500 X110 Y124.8
;TYPE:WALL-OUTER
G1 F1200 X138.8 Y124.8 E42.0328
G1 X138.8 Y112.781 E42.43255
G1 X138.503 Y112.754 E42.44247
G1 X138.003 Y112.614 E42.45974
G1 X137.568 Y112.408 E42.47575
G1 X137.182 Y112.13 E42.49157
G1 X136.857 Y111.804 E42.50688
G1 X136.582 Y111.408 E42.52292
G1 X136.359 Y110.941 E42.54013
G1 X136.239 Y110.484 E42.55584
G1 X136.196 Y109.982 E42.5726
G1 X136.24 Y109.515 E42.5882
G1 X136.376 Y109.018 E42.60534
G1 X136.582 Y108.583 E42.62135
G1 X136.857 Y108.192 E42.63725
G1 X137.182 Y107.866 E42.65256
G1 X137.602 Y107.575 E42.66955
G1 X138.076 Y107.354 E42.68695
G1 X138.535 Y107.236 E42.70271
G1 X138.8 Y107.215 E42.71155
G1 X138.8 Y95.2 E43.11117
G1 X81.2 Y95.2 E45.02696
G1 X81.2 Y124.8 E46.01146
G1 X108.75 Y124.8 E46.92777
G0 F1080 X110 Y124.8
G0 F7500 X110 Y124.09
G0 X110 Y123.5
G0 X110 Y123.24
;TYPE:SKIN
G1 F1200 X82.76 Y123.24 E47.83378
G1 X82.76 Y96.76 E48.71451
G1 X137.24 Y96.76 E50.52652
G1 X137.24 Y106.02 E50.83451
G1 X136.928 Y106.166 E50.84597
G1 X136.692 Y106.302 E50.85503
G1 X136.312 Y106.565 E50.8704
G1 X136.08 Y106.757 E50.88041
G1 X135.649 Y107.195 E50.90085
G1 X135.238 Y107.791 E50.92493
G1 X134.919 Y108.448 E50.94922
G1 X134.7 Y109.213 E50.97569
G1 X134.628 Y109.977 E51.00121
G1 X134.694 Y110.727 E51.02625
G1 X134.898 Y111.503 E51.05294
G1 X135.224 Y112.177 E51.07784
G1 X135.622 Y112.765 E51.10146
G1 X136.061 Y113.217 E51.12241
G1 X136.295 Y113.414 E51.13259
G1 X136.654 Y113.674 E51.14733
G1 X136.933 Y113.834 E51.15803
G1 X137.24 Y113.979 E51.16932
G1 X137.24 Y123.24 E51.47734
G1 X110 Y123.24 E52.38335
G0 F7500 X110 Y123.5
G0 X82.572 Y123.428
G0 X82.5 Y122.558
G0 X82.96 Y122.558
G1 F1200 X83.442 Y123.04 E52.40602
G0 F7500 X84.008 Y123.04
G1 F1200 X82.96 Y121.992 E52.45532
G0 F7500 X82.96 Y121.426
G1 F1200 X84.574 Y123.04 E52.53123
G0 F7500 X85.139 Y123.04
G1 F1200 X82.96 Y120.861 E52.63373
G0 F7500 X82.96 Y120.295
G1 F1200 X85.705 Y123.04 E52.76284
G0 F7500 X86.271 Y123.04
G1 F1200 X82.96 Y119.729 E52.91858
G0 F7500 X82.96 Y119.164
G1 F1200 X86.836 Y123.04 E53.1009
G0 F7500 X87.402 Y123.04
G1 F1200 X82.96 Y118.598 E53.30984
G0 F7500 X82.96 Y118.032
G1 F1200 X87.968 Y123.04 E53.5454
G0 F7500 X88.533 Y123.04
G1 F1200 X82.96 Y117.467 E53.80753
G0 F7500 X82.96 Y116.901
G1 F1200 X89.099 Y123.04 E54.09629
G0 F7500 X89.665 Y123.04
G1 F1200 X82.96 Y116.335 E54.41168
G0 F7500 X82.96 Y115.77
G1 F1200 X90.23 Y123.04 E54.75363
G0 F7500 X90.796 Y123.04
G1 F1200 X82.96 Y115.204 E55.12222
G0 F7500 X82.96 Y114.638
G1 F1200 X91.362 Y123.04 E55.51742
G0 F7500 X91.927 Y123.04
G1 F1200 X82.96 Y114.073 E55.9392
G0 F7500 X82.96 Y113.507
G1 F1200 X92.493 Y123.04 E56.3876
G0 F7500 X93.059 Y123.04
G1 F1200 X82.96 Y112.941 E56.86263
G0 F7500 X82.96 Y112.376
G1 F1200 X93.624 Y123.04 E57.36423
G0 F7500 X94.19 Y123.04
G1 F1200 X82.96 Y111.81 E57.89246
G0 F7500 X82.96 Y111.244
G1 F1200 X94.756 Y123.04 E58.4473
G0 F7500 X95.322 Y123.04
G1 F1200 X82.96 Y110.678 E59.02877
G0 F7500 X82.96 Y110.113
G1 F1200 X95.887 Y123.04 E59.63682
G0 F7500 X96.453 Y123.04
G1 F1200 X82.96 Y109.547 E60.27149
G0 F7500 X82.96 Y108.981
G1 F1200 X97.019 Y123.04 E60.93278
G0 F7500 X97.584 Y123.04
G1 F1200 X82.96 Y108.416 E61.62065
G0 F7500 X82.96 Y107.85
G1 F1200 X98.15 Y123.04 E62.33514
G0 F7500 X98.716 Y123.04
G1 F1200 X82.96 Y107.284 E63.07625
G0 F7500 X82.96 Y106.719
G1 F1200 X99.281 Y123.04 E63.84394
G0 F7500 X99.847 Y123.04
G1 F1200 X82.96 Y106.153 E64.63826
G0 F7500 X82.96 Y105.587
G1 F1200 X100.413 Y123.04 E65.45919
G0 F7500 X100.978 Y123.04
G1 F1200 X82.96 Y105.022 E66.3067
G0 F7500 X82.96 Y104.456
G1 F1200 X101.544 Y123.04 E67.18084
G0 F7500 X102.11 Y123.04
G1 F1200 X82.96 Y103.89 E68.0816
G0 F7500 X82.96 Y103.325
G1 F1200 X102.675 Y123.04 E69.00893
G0 F7500 X103.241 Y123.04
G1 F1200 X82.96 Y102.759 E69.96289
