;FLAVOR:Marlin
;TIME:1662
;Filament used: 1.04769m
;Layer height: 0.2
;MINX:70
;MINY:83.749
;MINZ:0.2
;MAXX:150
;MAXY:136.251
;MAXZ:1.4
;TARGET_MACHINE.NAME:Creality Ender-5
;Generated with Cura_SteamEngine 5.12.0
M140 S75
M105
M190 S75
M104 S240
M105
M109 S240
M201 X500.00 Y500.00 Z100.00 E5000.00 ;Setup machine max acceleration
M203 X500.00 Y500.00 Z10.00 E50.00 ;Setup machine max feedrate
M204 P500.00 R1000.00 T500.00 ;Setup Print/Retract/Travel acceleration
M205 X8.00 Y8.00 Z0.40 E5.00 ;Setup Jerk
M220 S100 ;Reset Feedrate
M221 S100 ;Reset Flowrate

G28 ;Home

G92 E0 ;Reset Extruder
G1 Z2.0 F3000 ;Move Z Axis up
G1 X210 Y20 Z0.28 F5000.0 ;Move to start position
G1 X210 Y200.0 Z0.28 F1500.0 E15 ;Draw the first line
G1 X209.7 Y200.0 Z0.28 F5000.0 ;Move to side a little
G1 X209.7 Y20 Z0.28 F1500.0 E30 ;Draw the second line
G92 E0 ;Reset Extruder
G1 Z2.0 F3000 ;Move Z Axis up

M82 ;absolute extrusion mode
G92 E0
G92 E0
G1 F2100 E-1.5
;LAYER_COUNT:7
;LAYER:0
M107
G0 F7500 X74.179 Y86.387 Z0.2
;TYPE:SKIRT
G1 F2100 E0
G1 F1500 X74.998 Y85.797 E0.03357
G1 X75.837 Y85.301 E0.06599
G1 X76.651 Y84.91 E0.09602
G1 X77.628 Y84.542 E0.13075
G1 X78.532 Y84.292 E0.16194
G1 X79.534 Y84.109 E0.19582
G1 X80.705 Y84.013 E0.2349
G1 X81.312 Y84 E0.25509
G1 X116.892 Y84 E1.43849
G1 X119.476 Y83.963 E1.52444
G1 X122.042 Y83.856 E1.60986
G1 X123.499 Y83.777 E1.65839
G1 X124.97 Y83.75 E1.70733
G1 X127.342 Y83.749 E1.78622
G1 X128.472 Y83.77 E1.82381
G1 X131.122 Y83.917 E1.91209
G1 X135.068 Y84 E2.04336
G1 X138.451 Y84.001 E2.15588
G1 X139.184 Y84.013 E2.18026
G1 X140.156 Y84.072 E2.21265
G1 X141.119 Y84.218 E2.24504
G1 X142.066 Y84.449 E2.27747
G1 X142.954 Y84.749 E2.30864
G1 X143.846 Y85.139 E2.34102
G1 X144.729 Y85.626 E2.37456
G1 X145.48 Y86.128 E2.4046
G1 X146.295 Y86.786 E2.43944
G1 X146.993 Y87.464 E2.47181
G1 X147.629 Y88.201 E2.50419
G1 X148.199 Y88.991 E2.53659
G1 X148.661 Y89.767 E2.56663
G1 X149.115 Y90.709 E2.60141
G1 X149.444 Y91.587 E2.63259
G1 X149.713 Y92.559 E2.66613
G1 X149.89 Y93.525 E2.6988
G1 X149.985 Y94.655 E2.73652
G1 X150 Y95.33 E2.75897
G1 X149.999 Y105.947 E3.11209
G1 X149.977 Y107.481 E3.16312
G1 X149.94 Y108.762 E3.20574
G1 X149.94 Y111.264 E3.28896
G1 X149.99 Y113.197 E3.35327
G1 X150 Y114.09 E3.38298
G1 X149.999 Y124.416 E3.72642
G1 X149.987 Y125.177 E3.75174
G1 X149.929 Y126.15 E3.78416
G1 X149.783 Y127.113 E3.81655
G1 X149.552 Y128.06 E3.84897
G1 X149.239 Y128.982 E3.88136
G1 X148.847 Y129.873 E3.91373
G1 X148.395 Y130.695 E3.94493
G1 X147.833 Y131.533 E3.97849
G1 X147.243 Y132.263 E4.00971
G1 X146.54 Y132.989 E4.04332
G1 X145.804 Y133.625 E4.07568
G1 X145.014 Y134.195 E4.10808
G1 X144.238 Y134.658 E4.13813
G1 X143.298 Y135.111 E4.17284
G1 X142.385 Y135.453 E4.20527
G1 X141.447 Y135.712 E4.23763
G1 X140.481 Y135.889 E4.27029
G1 X139.345 Y135.985 E4.30821
G1 X138.688 Y136 E4.33007
G1 X135.13 Y136 E4.44841
G1 X132.556 Y136.037 E4.53403
G1 X129.813 Y136.152 E4.62534
G1 X128.61 Y136.224 E4.66543
G1 X127.956 Y136.246 E4.68719
G1 X124.657 Y136.251 E4.79692
G1 X123.528 Y136.23 E4.83447
G1 X120.878 Y136.083 E4.92275
G1 X116.932 Y136 E5.05402
G1 X81.549 Y135.999 E6.23087
G1 X80.816 Y135.987 E6.25525
G1 X79.844 Y135.928 E6.28764
G1 X78.881 Y135.782 E6.32003
G1 X77.934 Y135.551 E6.35245
G1 X77.046 Y135.251 E6.38363
G1 X76.154 Y134.861 E6.41601
G1 X75.271 Y134.374 E6.44955
G1 X74.52 Y133.872 E6.47959
G1 X73.705 Y133.214 E6.51443
G1 X73.007 Y132.536 E6.5468
G1 X72.371 Y131.799 E6.57917
G1 X71.801 Y131.009 E6.61157
G1 X71.339 Y130.233 E6.64161
G1 X70.885 Y129.291 E6.67639
G1 X70.556 Y128.413 E6.70758
G1 X70.287 Y127.44 E6.74115
G1 X70.11 Y126.473 E6.77385
G1 X70.014 Y125.308 E6.81273
G1 X70 Y124.658 E6.83435
G1 X70.001 Y95.509 E7.80385
G1 X70.013 Y94.808 E7.82717
G1 X70.073 Y93.835 E7.8596
G1 X70.22 Y92.874 E7.89193
G1 X70.451 Y91.926 E7.92438
G1 X70.753 Y91.037 E7.95561
G1 X71.16 Y90.115 E7.98913
G1 X71.631 Y89.263 E8.02151
G1 X72.176 Y88.454 E8.05396
G1 X72.767 Y87.726 E8.08514
G1 X73.469 Y87.001 E8.11871
G1 X74.179 Y86.387 E8.14993
G0 F7500 X74.441 Y86.69
G1 F1500 X75.202 Y86.141 E8.18114
G1 X76.01 Y85.662 E8.21238
G1 X76.824 Y85.271 E8.24242
G1 X77.735 Y84.928 E8.27479
G1 X78.639 Y84.678 E8.30599
G1 X79.567 Y84.508 E8.33737
G1 X80.714 Y84.413 E8.37565
G1 X81.321 Y84.4 E8.39584
G1 X116.898 Y84.4 E9.57914
G1 X119.493 Y84.363 E9.66546
G1 X122.059 Y84.255 E9.75088
G1 X123.506 Y84.177 E9.79907
G1 X124.97 Y84.15 E9.84777
G1 X127.335 Y84.149 E9.92644
G1 X128.45 Y84.169 E9.96353
G1 X131.114 Y84.317 E10.05227
G1 X135.06 Y84.4 E10.18354
G1 X138.445 Y84.401 E10.29613
G1 X139.16 Y84.412 E10.31991
G1 X140.097 Y84.468 E10.35113
G1 X141.025 Y84.607 E10.38234
G1 X141.938 Y84.828 E10.41358
G1 X142.794 Y85.116 E10.44362
G1 X143.686 Y85.506 E10.476
G1 X144.507 Y85.959 E10.50719
G1 X145.258 Y86.461 E10.53724
G1 X146.017 Y87.073 E10.56966
G1 X146.691 Y87.726 E10.60088
G1 X147.305 Y88.435 E10.63207
G1 X147.855 Y89.196 E10.6633
G1 X148.317 Y89.972 E10.69334
G1 X148.74 Y90.849 E10.72572
G1 X149.069 Y91.727 E10.75691
G1 X149.32 Y92.632 E10.78815
G1 X149.491 Y93.559 E10.8195
G1 X149.586 Y94.689 E10.85721
G1 X149.6 Y95.33 E10.87854
G1 X149.599 Y105.941 E11.23146
G1 X149.577 Y107.469 E11.28229
G1 X149.54 Y108.75 E11.32491
G1 X149.54 Y111.264 E11.40853
G1 X149.59 Y113.201 E11.47298
G1 X149.6 Y114.09 E11.50255
G1 X149.599 Y124.41 E11.84579
G1 X149.588 Y125.154 E11.87054
G1 X149.533 Y126.091 E11.90176
G1 X149.394 Y127.019 E11.93297
G1 X149.173 Y127.932 E11.96421
G1 X148.873 Y128.821 E11.99542
G1 X148.496 Y129.68 E12.02662
G1 X148.044 Y130.502 E12.05782
G1 X147.521 Y131.282 E12.08905
G1 X146.955 Y131.985 E12.11907
G1 X146.278 Y132.687 E12.15151
G1 X145.57 Y133.301 E12.18268
G1 X144.809 Y133.851 E12.21391
G1 X144.033 Y134.314 E12.24396
G1 X143.157 Y134.737 E12.27632
G1 X142.278 Y135.068 E12.30756
G1 X141.374 Y135.319 E12.33876
G1 X140.447 Y135.49 E12.37011
G1 X139.311 Y135.586 E12.40803
G1 X138.679 Y135.6 E12.42906
G1 X135.124 Y135.6 E12.5473
G1 X132.539 Y135.637 E12.63328
G1 X129.796 Y135.753 E12.7246
G1 X128.596 Y135.824 E12.76458
G1 X127.955 Y135.846 E12.78591
G1 X124.664 Y135.851 E12.89537
G1 X123.55 Y135.831 E12.93243
G1 X120.886 Y135.683 E13.02117
G1 X116.94 Y135.6 E13.15245
G1 X81.555 Y135.599 E14.32935
G1 X80.84 Y135.588 E14.35314
G1 X79.903 Y135.532 E14.38436
G1 X78.975 Y135.393 E14.41557
G1 X78.062 Y135.172 E14.44681
G1 X77.206 Y134.884 E14.47685
G1 X76.314 Y134.494 E14.50923
G1 X75.493 Y134.041 E14.54042
G1 X74.742 Y133.539 E14.57046
G1 X73.983 Y132.927 E14.60289
G1 X73.309 Y132.274 E14.6341
G1 X72.695 Y131.565 E14.6653
G1 X72.145 Y130.804 E14.69653
G1 X71.683 Y130.028 E14.72657
G1 X71.26 Y129.151 E14.75895
G1 X70.931 Y128.273 E14.79014
G1 X70.68 Y127.368 E14.82137
G1 X70.509 Y126.44 E14.85276
G1 X70.413 Y125.275 E14.89164
G1 X70.4 Y124.658 E14.91216
G1 X70.401 Y95.515 E15.88146
G1 X70.412 Y94.832 E15.90418
G1 X70.469 Y93.895 E15.93541
G1 X70.609 Y92.968 E15.96659
G1 X70.83 Y92.055 E15.99783
G1 X71.132 Y91.166 E16.02906
G1 X71.51 Y90.308 E16.06024
G1 X71.963 Y89.486 E16.09146
G1 X72.487 Y88.706 E16.12271
G1 X73.078 Y87.978 E16.1539
G1 X73.731 Y87.304 E16.18511
G1 X74.441 Y86.69 E16.21633
G0 F7500 X74.675 Y87.014
G1 F1500 X75.407 Y86.485 E16.24637
G1 X76.183 Y86.023 E16.27641
G1 X76.997 Y85.632 E16.30645
G1 X77.842 Y85.313 E16.33649
G1 X78.712 Y85.071 E16.36652
G1 X79.6 Y84.907 E16.39656
G1 X80.723 Y84.813 E16.43404
G1 X81.33 Y84.8 E16.45423
G1 X116.904 Y84.8 E17.63743
G1 X119.51 Y84.763 E17.72411
G1 X122.076 Y84.654 E17.80953
G1 X123.513 Y84.577 E17.8574
G1 X124.97 Y84.55 E17.90587
G1 X127.328 Y84.549 E17.98429
G1 X128.428 Y84.568 E18.02089
G1 X131.106 Y84.717 E18.11009
G1 X135.052 Y84.8 E18.24137
G1 X138.439 Y84.801 E18.35402
G1 X139.137 Y84.811 E18.37724
G1 X140.039 Y84.864 E18.40729
G1 X140.932 Y84.996 E18.43731
G1 X141.81 Y85.207 E18.46735
G1 X142.666 Y85.495 E18.49739
G1 X143.493 Y85.857 E18.52741
G1 X144.285 Y86.292 E18.55747
G1 X145.036 Y86.794 E18.58751
G1 X145.739 Y87.361 E18.61755
G1 X146.389 Y87.988 E18.64759
G1 X146.981 Y88.67 E18.67763
G1 X147.511 Y89.401 E18.70766
G1 X147.973 Y90.177 E18.73769
G1 X148.366 Y90.99 E18.76773
G1 X148.684 Y91.835 E18.79776
G1 X148.927 Y92.705 E18.8278
G1 X149.092 Y93.593 E18.85784
G1 X149.187 Y94.723 E18.89556
G1 X149.2 Y95.33 E18.91575
G1 X149.199 Y105.935 E19.26848
G1 X149.177 Y107.457 E19.3191
G1 X149.14 Y108.738 E19.36173
G1 X149.14 Y111.264 E19.44574
G1 X149.19 Y113.206 E19.51035
G1 X149.2 Y114.09 E19.53976
G1 X149.199 Y124.404 E19.8828
G1 X149.189 Y125.131 E19.90699
G1 X149.137 Y126.033 E19.93704
G1 X149.005 Y126.926 E19.96706
G1 X148.794 Y127.805 E19.99713
G1 X148.507 Y128.661 E20.02715
G1 X148.145 Y129.488 E20.05718
G1 X147.711 Y130.28 E20.08722
G1 X147.209 Y131.031 E20.11726
G1 X146.643 Y131.734 E20.14728
G1 X146.016 Y132.385 E20.17734
G1 X145.335 Y132.977 E20.20736
G1 X144.604 Y133.507 E20.23739
G1 X143.828 Y133.97 E20.26744
G1 X143.015 Y134.363 E20.29748
G1 X142.17 Y134.683 E20.32753
G1 X141.301 Y134.926 E20.35754
G1 X140.413 Y135.091 E20.38758
G1 X139.277 Y135.187 E20.4255
G1 X138.67 Y135.2 E20.44569
G1 X135.118 Y135.2 E20.56383
G1 X132.522 Y135.237 E20.65018
G1 X129.779 Y135.354 E20.7415
G1 X128.582 Y135.424 E20.78138
G1 X127.941 Y135.446 E20.80271
G1 X127.941 Y135.433 E20.80315
G1 X127.686 Y135.45 E20.81165
G1 X124.671 Y135.451 E20.91192
G1 X123.572 Y135.432 E20.94848
G1 X120.894 Y135.283 E21.03769
G1 X116.948 Y135.2 E21.16896
G1 X81.561 Y135.199 E22.34594
G1 X80.863 Y135.189 E22.36916
G1 X79.961 Y135.136 E22.39921
G1 X79.068 Y135.004 E22.42924
G1 X78.19 Y134.793 E22.45927
G1 X77.334 Y134.505 E22.48931
G1 X76.507 Y134.143 E22.51933
G1 X75.715 Y133.708 E22.54939
G1 X74.964 Y133.206 E22.57943
G1 X74.261 Y132.639 E22.60947
G1 X73.611 Y132.012 E22.63951
G1 X73.019 Y131.33 E22.66955
G1 X72.489 Y130.599 E22.69958
G1 X72.027 Y129.823 E22.72962
G1 X71.634 Y129.01 E22.75965
G1 X71.316 Y128.165 E22.78968
G1 X71.073 Y127.295 E22.81972
G1 X70.908 Y126.407 E22.84976
G1 X70.813 Y125.266 E22.88784
G1 X70.8 Y124.658 E22.90807
G1 X70.801 Y95.521 E23.87717
G1 X70.811 Y94.856 E23.89929
G1 X70.865 Y93.954 E23.92935
G1 X70.998 Y93.061 E23.95938
G1 X71.209 Y92.183 E23.98941
G1 X71.498 Y91.327 E24.01946
G1 X71.861 Y90.5 E24.0495
G1 X72.295 Y89.709 E24.07951
G1 X72.798 Y88.958 E24.10957
G1 X73.366 Y88.256 E24.1396
G1 X73.993 Y87.606 E24.16964
G1 X74.675 Y87.014 E24.19968
G1 F2100 E22.69968
;MESH:Base Lid Bare.stl
G0 F7500 X81.424 Y94.335
G0 X81.424 Y95.424
G0 X82.572 Y123.428
G0 X110 Y123.6
;TYPE:WALL-INNER
G1 F2100 E24.19968
G1 F1200 X137.6 Y123.6 E25.11766
G1 X137.6 Y115.118 E25.39977
G1 X136.813 Y114.832 E25.42762
G1 X136.132 Y114.46 E25.45343
G1 X135.536 Y114.016 E25.47815
G1 X134.987 Y113.467 E25.50397
G1 X134.549 Y112.885 E25.5282
G1 X134.188 Y112.219 E25.5534
G1 X133.91 Y111.504 E25.57891
G1 X133.753 Y110.755 E25.60437
G1 X133.7 Y110 E25.62954
G1 X133.748 Y109.278 E25.65361
G1 X133.905 Y108.537 E25.6788
G1 X134.166 Y107.818 E25.70424
G1 X134.531 Y107.138 E25.72991
G1 X134.981 Y106.534 E25.75496
G1 X135.531 Y105.988 E25.78074
G1 X136.108 Y105.551 E25.80481
G1 X136.775 Y105.185 E25.83012
G1 X137.6 Y104.869 E25.8595
G1 X137.6 Y96.4 E26.14118
G1 X82.4 Y96.4 E27.97714
G1 X82.4 Y123.6 E28.88181
G1 X110 Y123.6 E29.79979
G0 F7500 X110 Y124
G1 F1200 X138 Y124 E30.73108
G1 X138 Y114.784 E31.0376
G1 X137.648 Y114.709 E31.04957
G1 X136.978 Y114.466 E31.07328
G1 X136.352 Y114.125 E31.09699
G1 X135.828 Y113.735 E31.11871
G1 X135.293 Y113.21 E31.14364
G1 X134.892 Y112.676 E31.16586
G1 X134.552 Y112.052 E31.18949
G1 X134.296 Y111.383 E31.21331
G1 X134.149 Y110.699 E31.23658
G1 X134.097 Y110.004 E31.25976
G1 X134.145 Y109.332 E31.28217
G1 X134.29 Y108.646 E31.30549
G1 X134.531 Y107.982 E31.32899
G1 X134.869 Y107.354 E31.35271
G1 X135.29 Y106.79 E31.37612
G1 X135.828 Y106.265 E31.40112
G1 X136.32 Y105.892 E31.42165
G1 X136.942 Y105.55 E31.44526
G1 X137.61 Y105.294 E31.46906
G1 X138 Y105.211 E31.48232
G1 X138 Y96 E31.78868
G1 X82 Y96 E33.65124
G1 X82 Y124 E34.58253
G1 X110 Y124 E35.51381
G0 F7500 X110 Y124.4
G1 F1200 X138.4 Y124.4 E36.4584
G1 X138.4 Y114.455 E36.78917
G1 X137.795 Y114.332 E36.80971
G1 X137.186 Y114.116 E36.8312
G1 X136.605 Y113.808 E36.85307
G1 X136.078 Y113.422 E36.8748
G1 X135.623 Y112.973 E36.89606
G1 X135.205 Y112.417 E36.91919
G1 X134.933 Y111.921 E36.93801
G1 X134.68 Y111.27 E36.96124
G1 X134.545 Y110.644 E36.98254
G1 X134.5 Y110 E37.00401
G1 X134.541 Y109.386 E37.02448
G1 X134.674 Y108.756 E37.04589
G1 X134.896 Y108.146 E37.06748
G1 X135.234 Y107.533 E37.09076
G1 X135.621 Y107.025 E37.11201
G1 X136.078 Y106.578 E37.13327
G1 X136.579 Y106.205 E37.15404
G1 X137.075 Y105.933 E37.17286
G1 X137.681 Y105.695 E37.19451
G1 X138.4 Y105.532 E37.21903
G1 X138.4 Y95.6 E37.54937
G1 X81.6 Y95.6 E39.43855
G1 X81.6 Y124.4 E40.39644
G1 X110 Y124.4 E41.34103
G0 F7500 X110 Y124.8
;TYPE:WALL-OUTER
G1 F1200 X138.8 Y124.8 E42.29892
G1 X138.8 Y114.083 E42.65537
G1 X138.426 Y114.056 E42.66784
G1 X137.878 Y113.94 E42.68647
G1 X137.296 Y113.728 E42.70707
G1 X136.772 Y113.441 E42.72694
G1 X136.31 Y113.094 E42.74616
G1 X135.906 Y112.69 E42.76516
G1 X135.556 Y112.225 E42.78452
G1 X135.278 Y111.716 E42.80381
G1 X135.064 Y111.157 E42.82372
G1 X134.941 Y110.588 E42.84308
G1 X134.9 Y109.986 E42.86315
G1 X134.937 Y109.44 E42.88135
G1 X135.059 Y108.865 E42.9009
G1 X135.261 Y108.31 E42.92055
G1 X135.555 Y107.772 E42.94094
G1 X135.903 Y107.309 E42.9602
G1 X136.331 Y106.888 E42.98017
G1 X136.771 Y106.556 E42.9985
G1 X137.267 Y106.284 E43.01732
G1 X137.853 Y106.06 E43.03818
G1 X138.42 Y105.94 E43.05746
G1 X138.8 Y105.911 E43.07014
G1 X138.8 Y95.2 E43.42638
G1 X81.2 Y95.2 E45.34217
G1 X81.2 Y124.8 E46.32667
G1 X110 Y124.8 E47.28456
G0 F7500 X110 Y124.09
G0 X110 Y123.5
G0 X110 Y123.24
;TYPE:SKIN
G1 F1200 X82.76 Y123.24 E48.19057
G1 X82.76 Y96.76 E49.07129
G1 X137.24 Y96.76 E50.88331
G1 X137.24 Y104.624 E51.14486
G1 X136.615 Y104.856 E51.16704
G1 X135.919 Y105.24 E51.19348
G1 X135.299 Y105.708 E51.21931
G1 X134.699 Y106.304 E51.24744
G1 X134.227 Y106.936 E51.27368
G1 X133.843 Y107.654 E51.30076
G1 X133.555 Y108.437 E51.32851
G1 X133.389 Y109.228 E51.35539
G1 X133.336 Y110.015 E51.38162
G1 X133.393 Y110.801 E51.40784
G1 X133.572 Y111.615 E51.43556
G1 X133.852 Y112.355 E51.46187
G1 X134.236 Y113.064 E51.48869
G1 X134.726 Y113.718 E51.51587
G1 X135.297 Y114.287 E51.54268
G1 X135.951 Y114.772 E51.56976
G1 X136.651 Y115.156 E51.59632
G1 X137.24 Y115.369 E51.61715
G1 X137.24 Y123.24 E51.87894
G1 X110 Y123.24 E52.78494
G0 F7500 X110 Y123.5
G0 X82.572 Y123.428
G0 X82.5 Y122.558
G0 X82.96 Y122.558
G1 F1200 X83.442 Y123.04 E52.80762
G0 F7500 X84.008 Y123.04
G1 F1200 X82.96 Y121.992 E52.85691
G0 F7500 X82.96 Y121.426
G1 F1200 X84.574 Y123.04 E52.93283
G0 F7500 X85.139 Y123.04
G1 F1200 X82.96 Y120.861 E53.03532
G0 F7500 X82.96 Y120.295
G1 F1200 X85.705 Y123.04 E53.16444
G0 F7500 X86.271 Y123.04
G1 F1200 X82.96 Y119.729 E53.32018
G0 F7500 X82.96 Y119.164
G1 F1200 X86.836 Y123.04 E53.50249
G0 F7500 X87.402 Y123.04
G1 F1200 X82.96 Y118.598 E53.71143
G0 F7500 X82.96 Y118.032
G1 F1200 X87.968 Y123.04 E53.94699
G0 F7500 X88.533 Y123.04
G1 F1200 X82.96 Y117.467 E54.20913
G0 F7500 X82.96 Y116.901
G1 F1200 X89.099 Y123.04 E54.49789
G0 F7500 X89.665 Y123.04
G1 F1200 X82.96 Y116.335 E54.81327
G0 F7500 X82.96 Y115.77
G1 F1200 X90.23 Y123.04 E55.15523
G0 F7500 X90.796 Y123.04
G1 F1200 X82.96 Y115.204 E55.52381
G0 F7500 X82.96 Y114.638
G1 F1200 X91.362 Y123.04 E55.91902
G0 F7500 X91.927 Y123.04
G1 F1200 X82.96 Y114.073 E56.3408
G0 F7500 X82.96 Y113.507
G1 F1200 X92.493 Y123.04 E56.7892
G0 F7500 X93.059 Y123.04
G1 F1200 X82.96 Y112.941 E57.26423
G0 F7500 X82.96 Y112.376
G1 F1200 X93.624 Y123.04 E57.76583
G0 F7500 X94.19 Y123.04
G1 F1200 X82.96 Y111.81 E58.29405
G0 F7500 X82.96 Y111.244
G1 F1200 X94.756 Y123.04 E58.8489
G0 F7500 X95.322 Y123.04
G1 F1200 X82.96 Y110.678 E59.43037
G0 F7500 X82.96 Y110.113
G1 F1200 X95.887 Y123.04 E60.03842
G0 F7500 X96.453 Y123.04
G1 F1200 X82.96 Y109.547 E60.67309
G0 F7500 X82.96 Y108.981
G1 F1200 X97.019 Y123.04 E61.33438
G0 F7500 X97.584 Y123.04
G1 F1200 X82.96 Y108.416 E62.02225
