;FLAVOR:Marlin
;TIME:865
;Filament used: 0.411741m
;Layer height: 0.2
;MINX:76.686
;MINY:98
;MINZ:0.2
;MAXX:143.314
;MAXY:122
;MAXZ:20
;TARGET_MACHINE.NAME:Creality Ender-5
;Generated with Cura_SteamEngine 5.12.0
M140 S75
M105
M190 S75
M104 S240
M105
M109 S240
M201 X500.00 Y500.00 Z100.00 E5000.00 ;Setup machine max acceleration
M203 X500.00 Y500.00 Z10.00 E50.00 ;Setup machine max feedrate
M204 P500.00 R1000.00 T500.00 ;Setup Print/Retract/Travel acceleration
M205 X8.00 Y8.00 Z0.40 E5.00 ;Setup Jerk
M220 S100 ;Reset Feedrate
M221 S100 ;Reset Flowrate

G28 ;Home

G92 E0 ;Reset Extruder
G1 Z2.0 F3000 ;Move Z Axis up
G1 X210 Y20 Z0.28 F5000.0 ;Move to start position
G1 X210 Y200.0 Z0.28 F1500.0 E15 ;Draw the first line
G1 X209.7 Y200.0 Z0.28 F5000.0 ;Move to side a little
G1 X209.7 Y20 Z0.28 F1500.0 E30 ;Draw the second line
G92 E0 ;Reset Extruder
G1 Z2.0 F3000 ;Move Z Axis up
M82 ;absolute extrusion mode
G92 E0
G92 E0
G1 F2100 E-1.5
;LAYER_COUNT:100
;LAYER:0
M107
G0 F7500 X81.231 Y100.43 Z0.2
;TYPE:SKIRT
G1 F2100 E0
G1 F1500 X82.131 Y99.829 E0.03599
G1 X82.701 Y99.495 E0.05797
G1 X83.164 Y99.249 E0.07541
G1 X84.106 Y98.831 E0.10968
G1 X85.029 Y98.516 E0.14212
G1 X85.963 Y98.288 E0.1741
G1 X86.497 Y98.188 E0.19217
G1 X87.393 Y98.074 E0.22221
G1 X88.109 Y98.035 E0.24606
G1 X89.569 Y98.005 E0.29463
G1 X130.314 Y98 E1.64981
G1 X131.481 Y98.015 E1.68863
G1 X131.972 Y98.031 E1.70497
G1 X133.277 Y98.161 E1.74859
G1 X133.676 Y98.225 E1.76203
G1 X134.594 Y98.417 E1.79322
G1 X135.56 Y98.709 E1.82679
G1 X136.46 Y99.072 E1.85907
G1 X137.239 Y99.464 E1.88807
G1 X137.877 Y99.831 E1.91255
G1 X138.709 Y100.385 E1.9458
G1 X139.469 Y100.995 E1.97821
G1 X140.17 Y101.669 E2.01055
G1 X140.786 Y102.371 E2.04162
G1 X141.234 Y102.97 E2.0665
G1 X141.639 Y103.588 E2.09107
G1 X142.116 Y104.436 E2.12343
G1 X142.517 Y105.324 E2.15584
G1 X142.839 Y106.244 E2.18826
G1 X143.076 Y107.186 E2.22057
G1 X143.222 Y108.077 E2.2506
G1 X143.3 Y109.205 E2.2882
G1 X143.314 Y110.276 E2.32383
G1 X143.305 Y110.776 E2.34046
G1 X143.26 Y111.596 E2.36777
G1 X143.128 Y112.56 E2.40014
G1 X142.911 Y113.511 E2.43258
G1 X142.611 Y114.438 E2.46499
G1 X142.231 Y115.334 E2.49736
G1 X141.819 Y116.114 E2.5267
G1 X141.349 Y116.867 E2.55622
G1 X140.815 Y117.595 E2.58625
G1 X140.023 Y118.482 E2.6258
G1 X139.247 Y119.194 E2.66083
G1 X138.53 Y119.743 E2.69086
G1 X137.843 Y120.188 E2.71809
G1 X137.264 Y120.524 E2.74035
G1 X136.81 Y120.764 E2.75743
G1 X135.927 Y121.157 E2.78958
G1 X134.971 Y121.484 E2.82318
G1 X134.037 Y121.712 E2.85516
G1 X133.503 Y121.812 E2.87323
G1 X132.607 Y121.926 E2.90327
G1 X131.891 Y121.965 E2.92712
G1 X130.439 Y121.993 E2.97542
G1 X89.686 Y122 E4.33087
G1 X88.519 Y121.985 E4.36969
G1 X88.028 Y121.969 E4.38603
G1 X86.723 Y121.839 E4.42965
G1 X86.324 Y121.775 E4.44309
G1 X85.406 Y121.583 E4.47428
G1 X84.44 Y121.291 E4.50785
G1 X83.539 Y120.927 E4.54017
G1 X82.742 Y120.525 E4.56986
G1 X82.136 Y120.177 E4.5931
G1 X81.302 Y119.623 E4.6264
G1 X80.544 Y119.016 E4.6587
G1 X79.858 Y118.362 E4.69023
G1 X78.923 Y117.251 E4.73852
G1 X78.606 Y116.797 E4.75694
G1 X78.361 Y116.412 E4.77212
G1 X77.884 Y115.564 E4.80448
G1 X77.483 Y114.676 E4.83688
G1 X77.161 Y113.756 E4.8693
G1 X76.924 Y112.814 E4.90161
G1 X76.778 Y111.923 E4.93164
G1 X76.7 Y110.794 E4.96928
G1 X76.686 Y109.72 E5.00501
G1 X76.695 Y109.223 E5.02154
G1 X76.74 Y108.403 E5.04885
G1 X76.872 Y107.439 E5.08121
G1 X77.088 Y106.49 E5.11359
G1 X77.388 Y105.563 E5.14599
G1 X77.768 Y104.667 E5.17836
G1 X78.175 Y103.896 E5.20736
G1 X78.57 Y103.258 E5.23232
G1 X79.137 Y102.467 E5.26469
G1 X79.773 Y101.729 E5.29709
G1 X80.47 Y101.05 E5.32945
G1 X81.231 Y100.43 E5.3621
G0 F7500 X81.453 Y100.763
G1 F1500 X82.353 Y100.162 E5.3981
G1 X82.889 Y99.848 E5.41876
G1 X83.352 Y99.602 E5.4362
G1 X84.235 Y99.209 E5.46834
G1 X85.124 Y98.905 E5.49959
G1 X86.058 Y98.677 E5.53157
G1 X86.547 Y98.585 E5.54812
G1 X87.443 Y98.471 E5.57816
G1 X88.117 Y98.435 E5.60061
G1 X89.569 Y98.405 E5.64891
G1 X130.309 Y98.4 E7.00393
G1 X131.468 Y98.415 E7.04248
G1 X131.959 Y98.431 E7.05882
G1 X133.214 Y98.556 E7.10077
G1 X133.594 Y98.617 E7.11357
G1 X134.512 Y98.809 E7.14476
G1 X135.411 Y99.08 E7.17599
G1 X136.28 Y99.429 E7.20714
G1 X137.04 Y99.811 E7.23543
G1 X137.678 Y100.178 E7.25991
G1 X138.459 Y100.697 E7.2911
G1 X139.192 Y101.284 E7.32234
G1 X139.869 Y101.933 E7.35353
G1 X140.485 Y102.635 E7.38459
G1 X140.9 Y103.19 E7.40764
G1 X141.291 Y103.785 E7.43132
G1 X141.752 Y104.601 E7.46249
G1 X142.14 Y105.456 E7.49372
G1 X142.451 Y106.342 E7.52495
G1 X142.681 Y107.251 E7.55614
G1 X142.827 Y108.142 E7.58617
G1 X142.9 Y109.21 E7.62177
G1 X142.914 Y110.269 E7.657
G1 X142.906 Y110.755 E7.67317
G1 X142.864 Y111.542 E7.69938
G1 X142.738 Y112.472 E7.73059
G1 X142.53 Y113.389 E7.76187
G1 X142.243 Y114.282 E7.79307
G1 X141.877 Y115.147 E7.8243
G1 X141.465 Y115.927 E7.85364
G1 X141.026 Y116.63 E7.88121
G1 X140.492 Y117.358 E7.91124
G1 X139.725 Y118.215 E7.94949
G1 X139.004 Y118.876 E7.98203
G1 X138.287 Y119.425 E8.01206
G1 X137.642 Y119.842 E8.03761
G1 X137.077 Y120.17 E8.05934
G1 X136.623 Y120.41 E8.07642
G1 X135.765 Y120.791 E8.10764
G1 X134.876 Y121.095 E8.13889
G1 X133.942 Y121.323 E8.17087
G1 X133.453 Y121.415 E8.18742
G1 X132.557 Y121.529 E8.21746
G1 X131.883 Y121.565 E8.23991
G1 X130.435 Y121.594 E8.28808
G1 X89.691 Y121.6 E9.64323
G1 X88.532 Y121.585 E9.68178
G1 X88.041 Y121.569 E9.69812
G1 X86.786 Y121.444 E9.74007
G1 X86.406 Y121.383 E9.75287
G1 X85.488 Y121.191 E9.78406
G1 X84.589 Y120.92 E9.81529
G1 X83.719 Y120.57 E9.84648
G1 X82.941 Y120.178 E9.87546
G1 X82.335 Y119.83 E9.8987
G1 X81.552 Y119.311 E9.92994
G1 X80.82 Y118.726 E9.96111
G1 X80.134 Y118.072 E9.99263
G1 X79.251 Y117.022 E10.03826
G1 X78.943 Y116.582 E10.05613
G1 X78.709 Y116.215 E10.0706
G1 X78.248 Y115.399 E10.10178
G1 X77.86 Y114.544 E10.133
G1 X77.549 Y113.658 E10.16424
G1 X77.319 Y112.749 E10.19542
G1 X77.173 Y111.858 E10.22545
G1 X77.1 Y110.789 E10.26109
G1 X77.086 Y109.727 E10.29642
G1 X77.094 Y109.244 E10.31248
G1 X77.136 Y108.457 E10.33869
G1 X77.262 Y107.527 E10.36991
G1 X77.469 Y106.612 E10.40111
G1 X77.756 Y105.719 E10.43231
G1 X78.122 Y104.854 E10.46355
G1 X78.529 Y104.083 E10.49255
G1 X78.895 Y103.491 E10.51569
G1 X79.441 Y102.727 E10.54693
G1 X80.052 Y102.015 E10.57813
G1 X80.723 Y101.36 E10.60932
G1 X81.453 Y100.763 E10.64069
G0 F7500 X81.675 Y101.096
G1 F1500 X82.575 Y100.495 E10.67668
G1 X83.077 Y100.201 E10.69603
G1 X83.54 Y99.955 E10.71347
G1 X84.365 Y99.587 E10.74351
G1 X85.219 Y99.294 E10.77354
G1 X86.133 Y99.07 E10.80484
G1 X86.597 Y98.982 E10.82055
G1 X87.493 Y98.868 E10.85059
G1 X88.125 Y98.835 E10.87164
G1 X89.569 Y98.805 E10.91968
G1 X130.304 Y98.8 E12.27453
G1 X131.455 Y98.815 E12.31282
G1 X131.946 Y98.831 E12.32916
G1 X133.151 Y98.951 E12.36943
G1 X133.513 Y99.009 E12.38163
G1 X134.397 Y99.192 E12.41165
G1 X135.262 Y99.451 E12.44168
G1 X136.101 Y99.787 E12.47174
G1 X136.841 Y100.158 E12.49928
G1 X137.457 Y100.512 E12.52291
G1 X138.21 Y101.01 E12.55293
G1 X138.916 Y101.573 E12.58297
G1 X139.569 Y102.197 E12.61301
G1 X140.165 Y102.875 E12.64303
G1 X140.566 Y103.41 E12.66527
G1 X140.943 Y103.982 E12.68806
G1 X141.388 Y104.767 E12.71807
G1 X141.763 Y105.589 E12.74812
G1 X142.063 Y106.441 E12.77816
G1 X142.286 Y107.316 E12.80819
G1 X142.432 Y108.207 E12.83822
G1 X142.5 Y109.215 E12.87183
G1 X142.514 Y110.263 E12.90669
G1 X142.507 Y110.734 E12.92235
G1 X142.468 Y111.489 E12.9475
G1 X142.348 Y112.384 E12.97753
G1 X142.149 Y113.267 E13.00764
G1 X141.874 Y114.127 E13.03767
G1 X141.523 Y114.96 E13.06773
G1 X141.111 Y115.74 E13.09707
G1 X140.703 Y116.393 E13.12268
G1 X140.169 Y117.121 E13.15271
G1 X139.427 Y117.948 E13.18967
G1 X138.761 Y118.558 E13.2197
G1 X138.044 Y119.107 E13.24974
G1 X137.441 Y119.496 E13.27361
G1 X136.89 Y119.817 E13.29482
G1 X136.46 Y120.045 E13.311
G1 X135.635 Y120.413 E13.34105
G1 X134.781 Y120.706 E13.37108
G1 X133.867 Y120.93 E13.40238
G1 X133.403 Y121.018 E13.41809
G1 X132.507 Y121.132 E13.44813
G1 X131.875 Y121.165 E13.46918
G1 X130.431 Y121.195 E13.51722
G1 X89.696 Y121.2 E14.87207
G1 X88.545 Y121.185 E14.91035
G1 X88.054 Y121.169 E14.92669
G1 X86.849 Y121.049 E14.96697
G1 X86.487 Y120.991 E14.97916
G1 X85.603 Y120.808 E15.00919
G1 X84.738 Y120.549 E15.03922
G1 X83.899 Y120.213 E15.06928
G1 X83.14 Y119.831 E15.09754
G1 X82.555 Y119.496 E15.11996
G1 X81.801 Y118.998 E15.15002
G1 X81.095 Y118.436 E15.18003
G1 X80.44 Y117.814 E15.21007
G1 X79.579 Y116.793 E15.25449
G1 X79.28 Y116.366 E15.27183
G1 X79.057 Y116.018 E15.28558
G1 X78.612 Y115.233 E15.31559
G1 X78.237 Y114.411 E15.34564
G1 X77.937 Y113.559 E15.37569
G1 X77.714 Y112.684 E15.40572
G1 X77.568 Y111.793 E15.43575
G1 X77.5 Y110.784 E15.46938
G1 X77.486 Y109.733 E15.50434
G1 X77.493 Y109.265 E15.51991
G1 X77.532 Y108.51 E15.54506
G1 X77.652 Y107.615 E15.57509
G1 X77.85 Y106.734 E15.60512
G1 X78.125 Y105.874 E15.63515
G1 X78.476 Y105.041 E15.66522
G1 X78.883 Y104.27 E15.69422
G1 X79.221 Y103.723 E15.7156
G1 X79.745 Y102.987 E15.74565
G1 X80.332 Y102.301 E15.77568
G1 X80.977 Y101.669 E15.80572
G1 X81.675 Y101.096 E15.83575
G1 F2100 E14.33575
;MESH:Salibration Stop.stl
G0 F7500 X88.896 Y108.55
G0 X110 Y110.189
;TYPE:WALL-INNER
G1 F2100 E15.83575
G1 F1218.3 X131.007 Y110.189 E16.52397
G1 X131.007 Y109.801 E16.53668
G1 X88.989 Y109.807 E17.91324
G1 X88.99 Y110.19 E17.92579
G1 X108.75 Y110.189 E18.57315
G0 F1080 X110 Y110.189
G0 F7500 X110 Y110.592
;TYPE:WALL-OUTER
G1 F1200 X130.984 Y110.592 E19.27108
G1 X131.269 Y110.558 E19.28063
G1 X131.404 Y110.45 E19.28638
G1 X131.404 Y109.521 E19.31728
G1 X131.265 Y109.438 E19.32266
G1 X130.987 Y109.404 E19.33198
G1 X89.012 Y109.404 E20.72807
G1 X88.728 Y109.438 E20.73758
G1 X88.592 Y109.549 E20.74342
G1 X88.592 Y110.447 E20.77329
G1 X88.732 Y110.561 E20.77929
G1 X89.011 Y110.592 E20.78863
G1 X108.75 Y110.592 E21.44515
G0 F1080 X110 Y110.592
G1 F2100 E19.94515
;MESH:NONMESH
G0 F300 Z0.4
G0 F7500 X110.001 Y110.284
G0 X89.022 Y109.635
G0 X88.896 Y108.55
G0 X81.675 Y101.096
;TIME_ELAPSED:33.964505
;LAYER:1
M106 S42.5
;TYPE:SKIRT
G1 F2100 E21.44515
G1 F1500 X82.575 Y100.495 E21.48115
G1 X83.077 Y100.201 E21.5005
G1 X83.54 Y99.955 E21.51793
G1 X84.365 Y99.587 E21.54798
G1 X85.219 Y99.294 E21.57801
G1 X86.133 Y99.07 E21.60931
G1 X86.597 Y98.982 E21.62502
G1 X87.493 Y98.868 E21.65506
G1 X88.125 Y98.835 E21.67611
G1 X89.569 Y98.805 E21.72415
G1 X130.304 Y98.8 E23.079
G1 X131.455 Y98.815 E23.11728
G1 X131.946 Y98.831 E23.13362
G1 X133.151 Y98.951 E23.1739
G1 X133.513 Y99.009 E23.18609
G1 X134.397 Y99.192 E23.21612
G1 X135.262 Y99.451 E23.24615
G1 X136.101 Y99.787 E23.27621
G1 X136.841 Y100.158 E23.30374
G1 X137.457 Y100.512 E23.32737
G1 X138.21 Y101.01 E23.3574
G1 X138.916 Y101.573 E23.38743
G1 X139.569 Y102.197 E23.41747
G1 X140.165 Y102.875 E23.4475
G1 X140.566 Y103.41 E23.46974
G1 X140.943 Y103.982 E23.49252
G1 X141.388 Y104.767 E23.52253
G1 X141.763 Y105.589 E23.55258
G1 X142.063 Y106.441 E23.58263
G1 X142.286 Y107.316 E23.61266
G1 X142.432 Y108.207 E23.64269
G1 X142.5 Y109.215 E23.67629
G1 X142.514 Y110.263 E23.71115
G1 X142.507 Y110.734 E23.72682
G1 X142.468 Y111.489 E23.75196
G1 X142.348 Y112.384 E23.782
G1 X142.149 Y113.267 E23.8121
G1 X141.874 Y114.127 E23.84213
G1 X141.523 Y114.96 E23.8722
G1 X141.111 Y115.74 E23.90154
G1 X140.703 Y116.393 E23.92715
G1 X140.169 Y117.121 E23.95718
G1 X139.427 Y117.948 E23.99413
G1 X138.761 Y118.558 E24.02417
G1 X138.044 Y119.107 E24.05421
G1 X137.441 Y119.496 E24.07807
G1 X136.89 Y119.817 E24.09928
G1 X136.46 Y120.045 E24.11547
G1 X135.635 Y120.413 E24.14552
G1 X134.781 Y120.706 E24.17555
G1 X133.867 Y120.93 E24.20685
G1 X133.403 Y121.018 E24.22255
G1 X132.507 Y121.132 E24.25259
G1 X131.875 Y121.165 E24.27364
G1 X130.431 Y121.195 E24.32168
G1 X89.696 Y121.2 E25.67653
G1 X88.545 Y121.185 E25.71482
G1 X88.054 Y121.169 E25.73116
G1 X86.849 Y121.049 E25.77143
G1 X86.487 Y120.991 E25.78363
G1 X85.603 Y120.808 E25.81365
G1 X84.738 Y120.549 E25.84369
G1 X83.899 Y120.213 E25.87375
G1 X83.14 Y119.831 E25.90201
G1 X82.555 Y119.496 E25.92443
G1 X81.801 Y118.998 E25.95448
G1 X81.095 Y118.436 E25.9845
G1 X80.44 Y117.814 E26.01454
G1 X79.579 Y116.793 E26.05896
G1 X79.28 Y116.366 E26.0763
G1 X79.057 Y116.018 E26.09005
G1 X78.612 Y115.233 E26.12006
G1 X78.237 Y114.411 E26.15011
G1 X77.937 Y113.559 E26.18015
G1 X77.714 Y112.684 E26.21018
G1 X77.568 Y111.793 E26.24021
G1 X77.5 Y110.784 E26.27385
G1 X77.486 Y109.733 E26.30881
G1 X77.493 Y109.265 E26.32438
G1 X77.532 Y108.51 E26.34952
G1 X77.652 Y107.615 E26.37956
G1 X77.85 Y106.734 E26.40959
G1 X78.125 Y105.874 E26.43962
G1 X78.476 Y105.041 E26.46968
G1 X78.883 Y104.27 E26.49868
G1 X79.221 Y103.723 E26.52007
G1 X79.745 Y102.987 E26.55012
G1 X80.332 Y102.301 E26.58015
G1 X80.977 Y101.669 E26.61018
G1 X81.675 Y101.096 E26.64022
G1 F2100 E25.14022
;MESH:Salibration Stop.stl
G0 F8250 X88.944 Y108.384
G0 X89.003 Y109.475
G0 X110.001 Y110.044
G0 X110 Y110.274
;TYPE:WALL-INNER
G1 F2100 E26.64022
G1 F872.7 X131.25 Y110.272 E27.61204
G1 F875.9 X131.371 Y110.244 E27.6177
G1 X131.371 Y109.737 E27.6408
G1 F869.6 X130.964 Y109.721 E27.65949
G1 X88.744 Y109.724 E29.59735
G1 F875.9 X88.625 Y109.753 E29.60293
G1 X88.626 Y110.259 E29.62599
G1 F869.6 X89.032 Y110.275 E29.64464
G1 X108.75 Y110.274 E30.54967
G0 F1080 X110 Y110.274
G0 F8250 X110 Y110.752
;TYPE:WALL-OUTER
G1 F1200 X131.004 Y110.751 E31.24827
G1 X131.359 Y110.733 E31.26009
G1 X131.653 Y110.664 E31.27014
G1 X131.844 Y110.516 E31.27817
G1 X131.844 Y109.48 E31.31263
G1 X131.65 Y109.333 E31.32073
G1 X131.355 Y109.263 E31.33081
G1 X130.986 Y109.244 E31.3431
G1 X88.995 Y109.245 E32.73972
G1 X88.641 Y109.263 E32.75151
G1 X88.346 Y109.333 E32.7616
G1 X88.218 Y109.405 E32.76648
G1 X88.152 Y109.522 E32.77095
G1 X88.152 Y110.512 E32.80388
G1 X88.346 Y110.663 E32.81206
G1 X88.641 Y110.733 E32.82214
G1 X89.032 Y110.752 E32.83516
G1 X108.75 Y110.752 E33.49098
G0 F1080 X110 Y110.752
G1 F2100 E31.99098
;MESH:NONMESH
G0 F300 Z0.6
G0 F8250 X110.001 Y110.044
G0 X89.003 Y109.475
G0 X88.944 Y108.384
G0 X81.675 Y101.096
;TIME_ELAPSED:52.738015
;LAYER:2
M106 S85
;TYPE:SKIRT
G1 F2100 E33.49098
G1 F1500 X82.575 Y100.495 E33.52698
G1 X83.077 Y100.201 E33.54633
G1 X83.54 Y99.955 E33.56376
G1 X84.365 Y99.587 E33.59381
G1 X85.219 Y99.294 E33.62384
G1 X86.133 Y99.07 E33.65514
G1 X86.597 Y98.982 E33.67085
G1 X87.493 Y98.868 E33.70089
G1 X88.125 Y98.835 E33.72194
G1 X89.569 Y98.805 E33.76998
G1 X130.304 Y98.8 E35.12483
G1 X131.455 Y98.815 E35.16311
G1 X131.946 Y98.831 E35.17945
G1 X133.151 Y98.951 E35.21973
G1 X133.513 Y99.009 E35.23192
G1 X134.397 Y99.192 E35.26195
G1 X135.262 Y99.451 E35.29198
G1 X136.101 Y99.787 E35.32204
G1 X136.841 Y100.158 E35.34957
G1 X137.457 Y100.512 E35.3732
G1 X138.21 Y101.01 E35.40323
G1 X138.916 Y101.573 E35.43326
G1 X139.569 Y102.197 E35.4633
G1 X140.165 Y102.875 E35.49333
G1 X140.566 Y103.41 E35.51557
G1 X140.943 Y103.982 E35.53835
G1 X141.388 Y104.767 E35.56836
G1 X141.763 Y105.589 E35.59841
G1 X142.063 Y106.441 E35.62846
G1 X142.286 Y107.316 E35.65849
G1 X142.432 Y108.207 E35.68852
G1 X142.5 Y109.215 E35.72212
G1 X142.514 Y110.263 E35.75698
G1 X142.507 Y110.734 E35.77265
G1 X142.468 Y111.489 E35.79779
G1 X142.348 Y112.384 E35.82783
G1 X142.149 Y113.267 E35.85793
G1 X141.874 Y114.127 E35.88796
G1 X141.523 Y114.96 E35.91803
G1 X141.111 Y115.74 E35.94737
G1 X140.703 Y116.393 E35.97298
G1 X140.169 Y117.121 E36.00301
G1 X139.427 Y117.948 E36.03996
G1 X138.761 Y118.558 E36.07
G1 X138.044 Y119.107 E36.10004
G1 X137.441 Y119.496 E36.1239
G1 X136.89 Y119.817 E36.14511
G1 X136.46 Y120.045 E36.1613
G1 X135.635 Y120.413 E36.19135
G1 X134.781 Y120.706 E36.22138
G1 X133.867 Y120.93 E36.25268
G1 X133.403 Y121.018 E36.26838
G1 X132.507 Y121.132 E36.29842
G1 X131.875 Y121.165 E36.31947
G1 X130.431 Y121.195 E36.36751
G1 X89.696 Y121.2 E37.72236
G1 X88.545 Y121.185 E37.76065
G1 X88.054 Y121.169 E37.77699
G1 X86.849 Y121.049 E37.81726
G1 X86.487 Y120.991 E37.82946
G1 X85.603 Y120.808 E37.85948
G1 X84.738 Y120.549 E37.88952
G1 X83.899 Y120.213 E37.91958
G1 X83.14 Y119.831 E37.94784
G1 X82.555 Y119.496 E37.97026
G1 X81.801 Y118.998 E38.00031
