;FLAVOR:Marlin
;TIME:375
;Filament used: 0.213257m
;Layer height: 0.2
;MINX:84.002
;MINY:84.5
;MINZ:0.2
;MAXX:135.998
;MAXY:135.5
;MAXZ:1
;TARGET_MACHINE.NAME:Creality Ender-5
;Generated with Cura_SteamEngine 5.12.0
M140 S75
M105
M190 S75
M104 S240
M105
M109 S240
M201 X500.00 Y500.00 Z100.00 E5000.00 ;Setup machine max acceleration
M203 X500.00 Y500.00 Z10.00 E50.00 ;Setup machine max feedrate
M204 P500.00 R1000.00 T500.00 ;Setup Print/Retract/Travel acceleration
M205 X8.00 Y8.00 Z0.40 E5.00 ;Setup Jerk
M220 S100 ;Reset Feedrate
M221 S100 ;Reset Flowrate

G28 ;Home

G92 E0 ;Reset Extruder
G1 Z2.0 F3000 ;Move Z Axis up
G1 X210 Y20 Z0.28 F5000.0 ;Move to start position
G1 X210 Y200.0 Z0.28 F1500.0 E15 ;Draw the first line
G1 X209.7 Y200.0 Z0.28 F5000.0 ;Move to side a little
G1 X209.7 Y20 Z0.28 F1500.0 E30 ;Draw the second line
G92 E0 ;Reset Extruder
G1 Z2.0 F3000 ;Move Z Axis up

M82 ;absolute extrusion mode
G92 E0
G92 E0
G1 F2100 E-1.5
;LAYER_COUNT:5
;LAYER:0
M107
G0 F7500 X87.498 Y87.973 Z0.2
;TYPE:SKIRT
G1 F2100 E0
G1 F1500 X88.196 Y87.293 E0.03241
G1 X88.952 Y86.679 E0.0648
G1 X89.757 Y86.134 E0.09714
G1 X90.578 Y85.677 E0.12839
G1 X91.5 Y85.267 E0.16195
G1 X92.421 Y84.953 E0.19431
G1 X93.367 Y84.721 E0.22671
G1 X94.326 Y84.574 E0.25898
G1 X95.205 Y84.513 E0.28829
G1 X95.812 Y84.5 E0.30848
G1 X123.804 Y84.5 E1.2395
G1 X124.683 Y84.513 E1.26874
G1 X125.655 Y84.572 E1.30112
G1 X126.618 Y84.718 E1.33352
G1 X127.565 Y84.949 E1.36594
G1 X128.487 Y85.263 E1.39834
G1 X129.378 Y85.657 E1.43074
G1 X130.228 Y86.126 E1.46303
G1 X130.979 Y86.628 E1.49307
G1 X131.794 Y87.286 E1.52791
G1 X132.492 Y87.964 E1.56028
G1 X133.128 Y88.701 E1.59266
G1 X133.698 Y89.491 E1.62506
G1 X134.16 Y90.267 E1.65509
G1 X134.614 Y91.209 E1.68987
G1 X134.943 Y92.087 E1.72106
G1 X135.212 Y93.06 E1.75464
G1 X135.387 Y94.02 E1.78709
G1 X135.48 Y95.031 E1.82086
G1 X135.593 Y97.647 E1.90795
G1 X135.774 Y100.185 E1.99258
G1 X135.951 Y102.085 E2.05605
G1 X135.998 Y103.483 E2.10257
G1 X135.98 Y104.464 E2.1352
G1 X135.89 Y106.369 E2.19863
G1 X135.821 Y108.879 E2.28215
G1 X135.824 Y111.348 E2.36427
G1 X135.995 Y116.019 E2.51973
G1 X135.988 Y117.174 E2.55815
G1 X135.966 Y117.71 E2.57599
G1 X135.681 Y121.023 E2.68659
G1 X135.539 Y123.587 E2.772
G1 X135.48 Y124.977 E2.81827
G1 X135.409 Y125.822 E2.84647
G1 X135.234 Y126.851 E2.88119
G1 X134.993 Y127.759 E2.91244
G1 X134.65 Y128.706 E2.94593
G1 X134.238 Y129.589 E2.97834
G1 X133.787 Y130.371 E3.00837
G1 X133.185 Y131.227 E3.04317
G1 X132.556 Y131.969 E3.07553
G1 X131.863 Y132.654 E3.10794
G1 X131.112 Y133.273 E3.14031
G1 X130.309 Y133.825 E3.17272
G1 X129.46 Y134.303 E3.20512
G1 X128.573 Y134.704 E3.2375
G1 X127.654 Y135.026 E3.26989
G1 X126.71 Y135.264 E3.30227
G1 X125.748 Y135.418 E3.33467
G1 X124.794 Y135.487 E3.36648
G1 X124.17 Y135.5 E3.38724
G1 X96.049 Y135.499 E4.32255
G1 X95.317 Y135.487 E4.3469
G1 X94.345 Y135.428 E4.37929
G1 X93.382 Y135.282 E4.41168
G1 X92.435 Y135.051 E4.4441
G1 X91.513 Y134.737 E4.4765
G1 X90.622 Y134.343 E4.5089
G1 X89.772 Y133.874 E4.54119
G1 X89.021 Y133.372 E4.57124
G1 X88.206 Y132.714 E4.60608
G1 X87.508 Y132.036 E4.63844
G1 X86.872 Y131.299 E4.67082
G1 X86.302 Y130.509 E4.70322
G1 X85.84 Y129.733 E4.73326
G1 X85.386 Y128.791 E4.76804
G1 X85.057 Y127.913 E4.79922
G1 X84.788 Y126.94 E4.8328
G1 X84.613 Y125.98 E4.86525
G1 X84.52 Y124.969 E4.89902
G1 X84.405 Y122.329 E4.98691
G1 X84.224 Y119.799 E5.07128
G1 X84.132 Y118.883 E5.1019
G1 X84.051 Y117.934 E5.13357
G1 X84.014 Y117.3 E5.1547
G1 X84.002 Y116.518 E5.18071
G1 X84.02 Y115.533 E5.21348
G1 X84.11 Y113.631 E5.27681
G1 X84.179 Y111.121 E5.36032
G1 X84.176 Y108.652 E5.44244
G1 X84.006 Y103.994 E5.59747
G1 X84.002 Y103.518 E5.6133
G1 X84.012 Y102.826 E5.63632
G1 X84.034 Y102.29 E5.65416
G1 X84.319 Y98.977 E5.76476
G1 X84.458 Y96.468 E5.84834
G1 X84.519 Y95.037 E5.89598
G1 X84.61 Y94.031 E5.92957
G1 X84.784 Y93.072 E5.96199
G1 X85.042 Y92.135 E5.99432
G1 X85.38 Y91.221 E6.02673
G1 X85.766 Y90.405 E6.05675
G1 X86.295 Y89.504 E6.0915
G1 X86.862 Y88.712 E6.1239
G1 X87.498 Y87.973 E6.15633
G0 F7500 X87.777 Y88.259
G1 F1500 X88.449 Y87.603 E6.18756
G1 X89.176 Y87.01 E6.21877
G1 X89.952 Y86.484 E6.24995
G1 X90.773 Y86.027 E6.2812
G1 X91.63 Y85.645 E6.31241
G1 X92.517 Y85.341 E6.34359
G1 X93.428 Y85.116 E6.3748
G1 X94.354 Y84.973 E6.40597
G1 X95.214 Y84.913 E6.43464
G1 X95.821 Y84.9 E6.45483
G1 X123.798 Y84.9 E7.38535
G1 X124.659 Y84.912 E7.41399
G1 X125.596 Y84.968 E7.44521
G1 X126.524 Y85.107 E7.47642
G1 X127.437 Y85.328 E7.50766
G1 X128.326 Y85.629 E7.53888
G1 X129.185 Y86.007 E7.5701
G1 X130.006 Y86.459 E7.60127
G1 X130.757 Y86.961 E7.63131
G1 X131.516 Y87.573 E7.66374
G1 X132.19 Y88.226 E7.69495
G1 X132.804 Y88.935 E7.72615
G1 X133.354 Y89.696 E7.75738
G1 X133.816 Y90.472 E7.78742
G1 X134.239 Y91.349 E7.8198
G1 X134.568 Y92.227 E7.85099
G1 X134.819 Y93.132 E7.88222
G1 X134.989 Y94.057 E7.9135
G1 X135.08 Y95.048 E7.9466
G1 X135.194 Y97.676 E8.03409
G1 X135.376 Y100.222 E8.11899
G1 X135.551 Y102.099 E8.18169
G1 X135.598 Y103.476 E8.22752
G1 X135.58 Y104.445 E8.25975
G1 X135.49 Y106.35 E8.32318
G1 X135.421 Y108.868 E8.40696
G1 X135.424 Y111.363 E8.48995
G1 X135.595 Y116.017 E8.64484
G1 X135.588 Y117.158 E8.68279
G1 X135.567 Y117.676 E8.70004
G1 X135.283 Y120.989 E8.81063
G1 X135.139 Y123.57 E8.89661
G1 X135.081 Y124.944 E8.94235
G1 X135.01 Y125.789 E8.97055
G1 X134.847 Y126.748 E9.00291
G1 X134.606 Y127.656 E9.03415
G1 X134.287 Y128.537 E9.06532
G1 X133.891 Y129.389 E9.09657
G1 X133.44 Y130.171 E9.12659
G1 X132.88 Y130.969 E9.15902
G1 X132.274 Y131.685 E9.19021
G1 X131.608 Y132.346 E9.22142
G1 X130.885 Y132.944 E9.25263
G1 X130.112 Y133.477 E9.28386
G1 X129.295 Y133.939 E9.31508
G1 X128.441 Y134.327 E9.34628
G1 X127.555 Y134.638 E9.37751
G1 X126.646 Y134.869 E9.4087
G1 X125.719 Y135.019 E9.43993
G1 X124.786 Y135.087 E9.47105
G1 X124.17 Y135.1 E9.49154
G1 X96.055 Y135.099 E10.42665
G1 X95.341 Y135.088 E10.4504
G1 X94.404 Y135.032 E10.48162
G1 X93.476 Y134.893 E10.51283
G1 X92.563 Y134.672 E10.54407
G1 X91.674 Y134.371 E10.57529
G1 X90.815 Y133.993 E10.60651
G1 X89.994 Y133.541 E10.63768
G1 X89.243 Y133.039 E10.66772
G1 X88.484 Y132.427 E10.70015
G1 X87.81 Y131.774 E10.73136
G1 X87.196 Y131.065 E10.76256
G1 X86.646 Y130.304 E10.79379
G1 X86.184 Y129.528 E10.82383
G1 X85.761 Y128.651 E10.85621
G1 X85.432 Y127.773 E10.8874
G1 X85.181 Y126.868 E10.91863
G1 X85.011 Y125.943 E10.94991
G1 X84.92 Y124.952 E10.98301
G1 X84.805 Y122.312 E11.0709
G1 X84.623 Y119.77 E11.15567
G1 X84.531 Y118.849 E11.18645
G1 X84.45 Y117.911 E11.21777
G1 X84.414 Y117.294 E11.23832
G1 X84.402 Y116.525 E11.2639
G1 X84.42 Y115.552 E11.29627
G1 X84.51 Y113.65 E11.3596
G1 X84.579 Y111.132 E11.44338
G1 X84.576 Y108.637 E11.52637
G1 X84.406 Y103.991 E11.681
G1 X84.402 Y103.524 E11.69653
G1 X84.412 Y102.842 E11.71921
G1 X84.433 Y102.324 E11.73646
G1 X84.717 Y99.011 E11.84705
G1 X84.858 Y96.485 E11.9312
G1 X84.919 Y95.054 E11.97884
G1 X85.004 Y94.102 E12.01063
G1 X85.17 Y93.177 E12.04188
G1 X85.417 Y92.273 E12.07305
G1 X85.742 Y91.392 E12.10429
G1 X86.128 Y90.576 E12.13431
G1 X86.621 Y89.736 E12.1667
G1 X87.166 Y88.972 E12.19792
G1 X87.777 Y88.259 E12.22915
G0 F7500 X88.057 Y88.545
G1 F1500 X88.702 Y87.913 E12.25918
G1 X89.401 Y87.341 E12.28922
G1 X90.147 Y86.833 E12.31924
G1 X90.936 Y86.392 E12.34931
G1 X91.76 Y86.023 E12.37933
G1 X92.614 Y85.729 E12.40937
G1 X93.49 Y85.511 E12.4394
G1 X94.382 Y85.372 E12.46943
G1 X95.223 Y85.313 E12.49747
G1 X95.83 Y85.3 E12.51766
G1 X123.793 Y85.3 E13.44771
G1 X124.636 Y85.311 E13.47575
G1 X125.538 Y85.364 E13.50581
G1 X126.431 Y85.496 E13.53583
G1 X127.309 Y85.707 E13.56586
G1 X128.165 Y85.995 E13.5959
G1 X128.993 Y86.358 E13.62597
G1 X129.784 Y86.792 E13.65598
G1 X130.535 Y87.294 E13.68603
G1 X131.238 Y87.861 E13.71606
G1 X131.888 Y88.488 E13.7461
G1 X132.48 Y89.17 E13.77614
G1 X133.01 Y89.901 E13.80617
G1 X133.472 Y90.677 E13.83621
G1 X133.865 Y91.49 E13.86624
G1 X134.183 Y92.335 E13.89627
G1 X134.426 Y93.205 E13.92632
G1 X134.591 Y94.093 E13.95636
G1 X134.68 Y95.065 E13.98882
G1 X134.795 Y97.705 E14.07671
G1 X134.978 Y100.259 E14.16187
G1 X135.151 Y102.116 E14.22391
G1 X135.198 Y103.468 E14.2689
G1 X135.18 Y104.426 E14.30077
G1 X135.09 Y106.331 E14.3642
G1 X135.021 Y108.857 E14.44825
G1 X135.024 Y111.378 E14.5321
G1 X135.195 Y116.015 E14.68643
G1 X135.188 Y117.142 E14.72391
G1 X135.168 Y117.642 E14.74056
G1 X134.885 Y120.955 E14.85115
G1 X134.739 Y123.553 E14.9377
G1 X134.682 Y124.911 E14.9829
G1 X134.611 Y125.756 E15.01111
G1 X134.46 Y126.646 E15.04113
G1 X134.23 Y127.52 E15.07119
G1 X133.924 Y128.369 E15.10121
G1 X133.544 Y129.189 E15.13127
G1 X133.093 Y129.971 E15.16129
G1 X132.574 Y130.711 E15.19135
G1 X131.992 Y131.401 E15.22138
G1 X131.352 Y132.038 E15.25141
G1 X130.657 Y132.615 E15.28145
G1 X129.915 Y133.129 E15.31147
G1 X129.129 Y133.575 E15.34153
G1 X128.308 Y133.95 E15.37155
G1 X127.456 Y134.25 E15.4016
G1 X126.581 Y134.474 E15.43164
G1 X125.69 Y134.62 E15.46167
G1 X124.777 Y134.687 E15.49212
G1 X124.17 Y134.7 E15.51231
G1 X96.061 Y134.699 E16.44722
G1 X95.364 Y134.689 E16.4704
G1 X94.462 Y134.636 E16.50045
G1 X93.569 Y134.504 E16.53048
G1 X92.691 Y134.293 E16.56051
G1 X91.835 Y134.005 E16.59055
G1 X91.007 Y133.642 E16.62062
G1 X90.216 Y133.208 E16.65063
G1 X89.465 Y132.706 E16.68067
G1 X88.762 Y132.139 E16.71071
G1 X88.112 Y131.512 E16.74075
G1 X87.52 Y130.83 E16.77079
G1 X86.99 Y130.099 E16.80082
G1 X86.528 Y129.323 E16.83086
G1 X86.135 Y128.51 E16.86089
G1 X85.817 Y127.665 E16.89092
G1 X85.574 Y126.795 E16.92097
G1 X85.409 Y125.907 E16.95101
G1 X85.32 Y124.935 E16.98347
G1 X85.205 Y122.295 E17.07136
G1 X85.022 Y119.741 E17.15652
G1 X84.93 Y118.815 E17.18747
G1 X84.849 Y117.877 E17.21879
G1 X84.855 Y117.876 E17.21899
G1 X84.814 Y117.288 E17.2386
G1 X84.802 Y116.532 E17.26374
G1 X84.82 Y115.571 E17.29571
G1 X84.91 Y113.669 E17.35904
G1 X84.979 Y111.143 E17.44309
G1 X84.976 Y108.622 E17.52694
G1 X84.806 Y103.987 E17.6812
G1 X84.802 Y103.53 E17.6964
G1 X84.812 Y102.858 E17.71876
G1 X84.832 Y102.358 E17.7354
G1 X85.115 Y99.045 E17.84599
G1 X85.258 Y96.502 E17.93071
G1 X85.319 Y95.071 E17.97834
G1 X85.398 Y94.172 E18.00836
G1 X85.556 Y93.282 E18.03843
G1 X85.792 Y92.411 E18.06844
G1 X86.104 Y91.563 E18.09849
G1 X86.49 Y90.747 E18.12852
G1 X86.947 Y89.968 E18.15856
G1 X87.47 Y89.232 E18.18859
G1 X88.057 Y88.545 E18.21864
G1 F2100 E16.71864
;MESH:Display Lid.stl
G0 F7500 X94.835 Y95.924
G0 X95.924 Y95.924
G0 X97.072 Y103.676
G0 X110 Y103.848
;TYPE:WALL-INNER
G1 F2100 E18.21864
G1 F1200 X123.1 Y103.848 E18.65435
G1 X123.1 Y96.9 E18.88544
G1 X96.9 Y96.9 E19.75686
G1 X96.9 Y103.848 E19.98795
G1 X110 Y103.848 E20.42365
G0 F7500 X123.5 Y104.34
G0 X123.5 Y104.376
G1 F1200 X123.5 Y96.5 E20.68561
G1 X96.5 Y96.5 E21.58363
G1 X96.5 Y104.372 E21.84546
G1 X96.624 Y104.248 E21.85129
G1 X123.372 Y104.248 E22.74093
G1 X123.5 Y104.376 E22.74695
G0 F7500 X123.9 Y105.176
G1 F1200 X123.9 Y96.1 E23.04882
G1 X96.1 Y96.1 E23.97345
G1 X96.1 Y105.172 E24.27519
G1 X96.624 Y104.648 E24.29984
G1 X123.372 Y104.648 E25.18948
G1 X123.9 Y105.176 E25.21432
G1 F2100 E23.71432
G0 F7500 X123.62 Y104.37
G0 X123.813 Y104.812
G0 X123.813 Y120.938
G0 X123.182 Y123.182
G0 X110 Y123.1
G1 F2100 E25.21432
G1 F1200 X123.1 Y123.1 E25.65002
G1 X123.1 Y121.9 E25.68994
G1 X96.9 Y121.9 E26.56135
G1 X96.9 Y123.1 E26.60126
G1 X110 Y123.1 E27.03697
G0 F7500 X110 Y123.5
G1 F1200 X123.5 Y123.5 E27.48598
G1 X123.5 Y121.393 E27.55606
G1 X123.372 Y121.5 E27.56161
G1 X96.624 Y121.5 E28.45125
G1 X96.5 Y121.396 E28.45664
G1 X96.5 Y123.5 E28.52662
G1 X110 Y123.5 E28.97563
G0 F7500 X110 Y123.9
G1 F1200 X123.9 Y123.9 E29.43794
G1 X123.9 Y120.657 E29.54581
G1 X123.372 Y121.1 E29.56873
G1 X96.624 Y121.1 E30.45837
G1 X96.1 Y120.66 E30.48113
G1 X96.1 Y123.9 E30.58889
G1 X110 Y123.9 E31.05121
G0 F7500 X110 Y124.3
;TYPE:WALL-OUTER
G1 F1200 X124.3 Y124.3 E31.52683
G1 X124.3 Y121.628 E31.6157
G1 F991.7 X124.216 Y120.598 E31.65729
G1 F848.1 X124.218 Y105.248 E32.37971
G1 F995.9 X124.3 Y104.12 E32.42503
G1 F1200 X124.3 Y95.7 E32.70509
G1 X95.7 Y95.7 E33.65632
G1 X95.7 Y104.124 E33.93651
G1 F997.9 X95.781 Y105.248 E33.98158
G1 F851.1 X95.783 Y120.597 E34.7014
G1 F993.8 X95.7 Y121.624 E34.74278
G1 F1200 X95.7 Y124.3 E34.83178
G1 X110 Y124.3 E35.3074
G1 F2100 E33.8074
G0 F7500 X110 Y123.59
G0 X96.818 Y123.182
G0 X96.818 Y121.818
G0 X110 Y121.41
G0 X110 Y120.7
G1 F2100 E35.3074
G1 F1200 X96.624 Y120.7 E35.75229
G1 F993.8 X96.345 Y120.549 E35.76503
G1 F851.1 X96.343 Y105.248 E36.4826
G1 F997.9 X96.624 Y105.048 E36.49639
G1 F1200 X123.372 Y105.048 E37.38604
G1 F995.9 X123.654 Y105.248 E37.39989
G1 F848.1 X123.652 Y120.549 E38.12
G1 F991.7 X123.372 Y120.7 E38.13281
G1 F1200 X110 Y120.7 E38.57756
G0 F7500 X110 Y121.41
G0 X123.182 Y121.818
G0 X123.182 Y123.182
G0 X110 Y123
G0 X110 Y122.72
;TYPE:SKIN
G1 F1090.9 X97.28 Y122.72 E39.04294
G1 X97.28 Y122.28 E39.05904
G1 X122.72 Y122.28 E39.98979
G1 X122.72 Y122.72 E40.00588
G1 X110 Y122.72 E40.47126
G1 F2100 E38.97126
G0 F7500 X110 Y123
G0 X96.818 Y123.182
G0 X96.187 Y120.938
G0 X96.187 Y104.812
G0 X110 Y103.748
G0 X110 Y103.488
G1 F2100 E40.47126
G1 F1200 X97.26 Y103.488 E40.89499
G1 X97.26 Y97.26 E41.10214
G1 X122.74 Y97.26 E41.94961
G1 X122.74 Y103.488 E42.15675
G1 X110 Y103.488 E42.58049
G0 F7500 X110 Y103.748
G0 X97.072 Y103.676
G0 X97 Y103.117
G0 X97.46 Y103.117
G1 F1200 X97.631 Y103.288 E42.58853
G0 F7500 X98.197 Y103.288
G1 F1200 X97.46 Y102.551 E42.62319
G0 F7500 X97.46 Y101.985
G1 F1200 X98.762 Y103.288 E42.68446
G0 F7500 X99.328 Y103.288
G1 F1200 X97.46 Y101.42 E42.77233
G0 F7500 X97.46 Y100.854
G1 F1200 X99.894 Y103.288 E42.88681
G0 F7500 X100.459 Y103.288
G1 F1200 X97.46 Y100.288 E43.0279
G0 F7500 X97.46 Y99.723
G1 F1200 X101.025 Y103.288 E43.19559
G0 F7500 X101.591 Y103.288
G1 F1200 X97.46 Y99.157 E43.3899
G0 F7500 X97.46 Y98.591
G1 F1200 X102.156 Y103.288 E43.61081
G0 F7500 X102.722 Y103.288
G1 F1200 X97.46 Y98.026 E43.85831
G0 F7500 X97.46 Y97.46
G1 F1200 X103.288 Y103.288 E44.13245
G0 F7500 X103.853 Y103.288
G1 F1200 X98.026 Y97.46 E44.40655
G0 F7500 X98.591 Y97.46
G1 F1200 X104.419 Y103.288 E44.68068
G0 F7500 X104.985 Y103.288
G1 F1200 X99.157 Y97.46 E44.95482
G0 F7500 X99.723 Y97.46
G1 F1200 X105.551 Y103.288 E45.22895
G0 F7500 X106.116 Y103.288
G1 F1200 X100.288 Y97.46 E45.50308
G0 F7500 X100.854 Y97.46
G1 F1200 X106.682 Y103.288 E45.77721
G0 F7500 X107.248 Y103.288
G1 F1200 X101.42 Y97.46 E46.05134
G0 F7500 X101.985 Y97.46
G1 F1200 X107.813 Y103.288 E46.32547
G0 F7500 X108.379 Y103.288
G1 F1200 X102.551 Y97.46 E46.5996
G0 F7500 X103.117 Y97.46
G1 F1200 X108.945 Y103.288 E46.87373
G0 F7500 X109.51 Y103.288
G1 F1200 X103.682 Y97.46 E47.14787
G0 F7500 X104.248 Y97.46
G1 F1200 X110.076 Y103.288 E47.422
G0 F7500 X110.642 Y103.288
G1 F1200 X104.814 Y97.46 E47.69613
G0 F7500 X105.379 Y97.46
G1 F1200 X111.207 Y103.288 E47.97026
G0 F7500 X111.773 Y103.288
G1 F1200 X105.945 Y97.46 E48.24439
G0 F7500 X106.511 Y97.46
G1 F1200 X112.339 Y103.288 E48.51852
G0 F7500 X112.904 Y103.288
G1 F1200 X107.076 Y97.46 E48.79265
G0 F7500 X107.642 Y97.46
G1 F1200 X113.47 Y103.288 E49.06678
G0 F7500 X114.036 Y103.288
G1 F1200 X108.208 Y97.46 E49.34092
G0 F7500 X108.774 Y97.46
G1 F1200 X114.602 Y103.288 E49.61505
G0 F7500 X115.167 Y103.288
G1 F1200 X109.339 Y97.46 E49.88918
G0 F7500 X109.905 Y97.46
G1 F1200 X115.733 Y103.288 E50.16331
G0 F7500 X116.299 Y103.288
G1 F1200 X110.471 Y97.46 E50.43744
G0 F7500 X111.036 Y97.46
G1 F1200 X116.864 Y103.288 E50.71157
G0 F7500 X117.43 Y103.288
G1 F1200 X111.602 Y97.46 E50.9857
G0 F7500 X112.168 Y97.46
G1 F1200 X117.996 Y103.288 E51.25983
G0 F7500 X118.561 Y103.288
G1 F1200 X112.733 Y97.46 E51.53397
G0 F7500 X113.299 Y97.46
G1 F1200 X119.127 Y103.288 E51.8081
G0 F7500 X119.693 Y103.288
G1 F1200 X113.865 Y97.46 E52.08223
G0 F7500 X114.43 Y97.46
G1 F1200 X120.258 Y103.288 E52.35636
G0 F7500 X120.824 Y103.288
G1 F1200 X114.996 Y97.46 E52.63049
G0 F7500 X115.562 Y97.46
G1 F1200 X121.39 Y103.288 E52.90462
G0 F7500 X121.955 Y103.288
G1 F1200 X116.127 Y97.46 E53.17875
G0 F7500 X116.693 Y97.46
