;FLAVOR:Marlin
;TIME:2762
;Filament used: 1.69841m
;Layer height: 0.2
;MINX:55.5
;MINY:55
;MINZ:0.2
;MAXX:164.5
;MAXY:165
;MAXZ:1
;TARGET_MACHINE.NAME:Creality Ender-5
;Generated with Cura_SteamEngine 5.12.0
M140 S75
M105
M190 S75
M104 S240
M105
M109 S240
M201 X500.00 Y500.00 Z100.00 E5000.00 ;Setup machine max acceleration
M203 X500.00 Y500.00 Z10.00 E50.00 ;Setup machine max feedrate
M204 P500.00 R1000.00 T500.00 ;Setup Print/Retract/Travel acceleration
M205 X8.00 Y8.00 Z0.40 E5.00 ;Setup Jerk
M220 S100 ;Reset Feedrate
M221 S100 ;Reset Flowrate

G28 ;Home

G92 E0 ;Reset Extruder
G1 Z2.0 F3000 ;Move Z Axis up
G1 X210 Y20 Z0.28 F5000.0 ;Move to start position
G1 X210 Y200.0 Z0.28 F1500.0 E15 ;Draw the first line
G1 X209.7 Y200.0 Z0.28 F5000.0 ;Move to side a little
G1 X209.7 Y20 Z0.28 F1500.0 E30 ;Draw the second line
G92 E0 ;Reset Extruder
G1 Z2.0 F3000 ;Move Z Axis up

M82 ;absolute extrusion mode
G92 E0
G92 E0
G1 F2100 E-1.5
;LAYER_COUNT:5
;LAYER:0
M107
G0 F7500 X86.81 Y59.974 Z0.2
;TYPE:SKIRT
G1 F2100 E0
G1 F1500 X87.228 Y59.382 E0.0241
G1 X87.849 Y58.631 E0.05652
G1 X88.532 Y57.94 E0.08883
G1 X89.247 Y57.332 E0.12005
G1 X90.073 Y56.747 E0.15371
G1 X90.915 Y56.26 E0.18606
G1 X91.797 Y55.847 E0.21846
G1 X92.645 Y55.536 E0.2485
G1 X93.376 Y55.33 E0.27376
G1 X94.261 Y55.15 E0.3038
G1 X95.705 Y55.013 E0.35204
G1 X96.312 Y55 E0.37223
G1 X123.304 Y55 E1.26999
G1 X124.178 Y55.013 E1.29906
G1 X125.004 Y55.058 E1.32658
G1 X125.968 Y55.19 E1.35894
G1 X126.917 Y55.406 E1.39131
G1 X127.843 Y55.705 E1.42367
G1 X128.676 Y56.056 E1.45374
G1 X129.6 Y56.546 E1.48853
G1 X130.415 Y57.078 E1.5209
G1 X131.153 Y57.658 E1.55212
G1 X131.889 Y58.351 E1.58574
G1 X132.541 Y59.086 E1.61842
G1 X133.254 Y60.07 E1.65883
G1 X134.756 Y62.362 E1.74998
G1 X136.194 Y64.424 E1.83359
G1 X137.701 Y66.459 E1.91781
G1 X139.235 Y68.407 E2.00028
G1 X140.873 Y70.376 E2.08547
G1 X142.529 Y72.253 E2.16872
G1 X144.262 Y74.112 E2.25325
G1 X146.003 Y75.875 E2.33566
G1 X147.828 Y77.621 E2.41967
G1 X149.706 Y79.32 E2.5039
G1 X151.612 Y80.947 E2.58725
G1 X153.566 Y82.524 E2.67076
G1 X155.57 Y84.048 E2.7545
G1 X157.639 Y85.532 E2.83919
G1 X159.8 Y86.997 E2.92602
G1 X160.573 Y87.591 E2.95845
G1 X161.292 Y88.254 E2.99097
G1 X161.948 Y88.974 E3.02337
G1 X162.497 Y89.691 E3.05341
G1 X163.055 Y90.575 E3.08818
G1 X163.499 Y91.442 E3.12057
G1 X163.839 Y92.278 E3.15059
G1 X164.145 Y93.277 E3.18534
G1 X164.345 Y94.23 E3.21773
G1 X164.454 Y95.127 E3.24778
G1 X164.485 Y95.673 E3.26597
G1 X164.5 Y96.33 E3.28783
G1 X164.499 Y123.428 E4.18911
G1 X164.487 Y124.174 E4.21393
G1 X164.442 Y125.004 E4.24157
G1 X164.31 Y125.968 E4.27394
G1 X164.094 Y126.917 E4.30631
G1 X163.795 Y127.843 E4.33867
G1 X163.444 Y128.676 E4.36874
G1 X162.954 Y129.6 E4.40352
G1 X162.422 Y130.415 E4.43589
G1 X161.842 Y131.153 E4.46711
G1 X161.149 Y131.889 E4.50074
G1 X160.448 Y132.513 E4.53195
G1 X160.172 Y132.719 E4.54341
G1 X160.071 Y132.809 E4.54791
G1 X159.647 Y133.11 E4.5652
G1 X158.635 Y133.796 E4.60586
G1 X156.502 Y135.283 E4.69235
G1 X154.5 Y136.766 E4.77521
G1 X152.51 Y138.327 E4.85933
G1 X150.577 Y139.936 E4.94298
G1 X148.68 Y141.609 E5.02711
G1 X146.829 Y143.335 E5.11129
G1 X145.064 Y145.076 E5.19374
G1 X143.3 Y146.918 E5.27857
G1 X141.622 Y148.774 E5.36179
G1 X139.973 Y150.704 E5.44622
G1 X138.407 Y152.644 E5.52915
G1 X136.891 Y154.637 E5.61243
G1 X135.422 Y156.685 E5.69626
G1 X133.99 Y158.806 E5.78138
G1 X133.129 Y160.12 E5.83363
G1 X132.595 Y160.848 E5.86366
G1 X131.802 Y161.736 E5.90325
G1 X131.026 Y162.448 E5.93828
G1 X130.309 Y162.997 E5.96832
G1 X129.425 Y163.555 E6.00309
G1 X128.557 Y163.999 E6.03551
G1 X127.651 Y164.363 E6.06799
G1 X126.624 Y164.67 E6.10364
G1 X125.739 Y164.85 E6.13368
G1 X124.294 Y164.987 E6.18195
G1 X123.67 Y165 E6.20271
G1 X96.55 Y164.999 E7.10473
G1 X95.819 Y164.987 E7.12904
G1 X94.996 Y164.942 E7.15646
G1 X94.032 Y164.81 E7.18882
G1 X93.083 Y164.594 E7.22119
G1 X92.157 Y164.295 E7.25356
G1 X91.324 Y163.944 E7.28362
G1 X90.4 Y163.454 E7.31841
G1 X89.585 Y162.922 E7.35078
G1 X88.847 Y162.342 E7.382
G1 X88.111 Y161.649 E7.41562
G1 X87.461 Y160.916 E7.44821
G1 X86.783 Y159.987 E7.48646
G1 X85.23 Y157.618 E7.58067
G1 X83.806 Y155.576 E7.66347
G1 X82.285 Y153.523 E7.74845
G1 X80.765 Y151.593 E7.83016
G1 X79.127 Y149.624 E7.91535
G1 X77.457 Y147.731 E7.99931
G1 X75.738 Y145.888 E8.08313
G1 X73.981 Y144.109 E8.1663
G1 X72.181 Y142.387 E8.24915
G1 X70.278 Y140.666 E8.33449
G1 X68.388 Y139.053 E8.41713
G1 X66.416 Y137.462 E8.5014
G1 X64.43 Y135.952 E8.58438
G1 X62.361 Y134.468 E8.66907
G1 X60.2 Y133.003 E8.75591
G1 X59.427 Y132.409 E8.78833
G1 X58.708 Y131.746 E8.82086
G1 X58.052 Y131.026 E8.85325
G1 X57.503 Y130.309 E8.88329
G1 X56.945 Y129.425 E8.91806
G1 X56.501 Y128.557 E8.95049
G1 X56.137 Y127.651 E8.98296
G1 X55.83 Y126.624 E9.01861
G1 X55.65 Y125.739 E9.04865
G1 X55.513 Y124.294 E9.09693
G1 X55.5 Y123.67 E9.11769
G1 X55.501 Y96.549 E10.01973
G1 X55.513 Y95.822 E10.04392
G1 X55.558 Y94.996 E10.07143
G1 X55.69 Y94.032 E10.10379
G1 X55.906 Y93.083 E10.13617
G1 X56.205 Y92.157 E10.16853
G1 X56.556 Y91.324 E10.19859
G1 X57.046 Y90.4 E10.23338
G1 X57.578 Y89.585 E10.26575
G1 X58.158 Y88.847 E10.29697
G1 X58.825 Y88.136 E10.3294
G1 X59.57 Y87.471 E10.36261
G1 X60.138 Y87.038 E10.38637
G1 X61.373 Y86.198 E10.43604
G1 X63.498 Y84.717 E10.52219
G1 X65.5 Y83.234 E10.60506
G1 X67.49 Y81.673 E10.68918
G1 X69.423 Y80.064 E10.77283
G1 X71.32 Y78.391 E10.85696
G1 X73.171 Y76.665 E10.94113
G1 X74.936 Y74.924 E11.02359
G1 X76.7 Y73.082 E11.10842
G1 X78.378 Y71.226 E11.19164
G1 X80.027 Y69.296 E11.27607
G1 X81.593 Y67.356 E11.35899
G1 X83.109 Y65.363 E11.44228
G1 X84.578 Y63.315 E11.52611
G1 X86.01 Y61.194 E11.61122
G1 X86.81 Y59.974 E11.65975
G0 F7500 X87.137 Y60.204
G1 F1500 X87.537 Y59.636 E11.68285
G1 X88.134 Y58.912 E11.71406
G1 X88.792 Y58.244 E11.74525
G1 X89.479 Y57.658 E11.77528
G1 X90.274 Y57.093 E11.80772
G1 X91.085 Y56.622 E11.83892
G1 X91.935 Y56.223 E11.87015
G1 X92.783 Y55.912 E11.90019
G1 X93.456 Y55.722 E11.92345
G1 X94.341 Y55.542 E11.95349
G1 X95.714 Y55.413 E11.99935
G1 X96.321 Y55.4 E12.01955
G1 X123.298 Y55.4 E12.9168
G1 X124.157 Y55.412 E12.94538
G1 X124.95 Y55.454 E12.97179
G1 X125.88 Y55.58 E13.003
G1 X126.795 Y55.787 E13.03421
G1 X127.688 Y56.074 E13.0654
G1 X128.521 Y56.425 E13.09547
G1 X129.382 Y56.881 E13.12787
G1 X130.168 Y57.393 E13.15907
G1 X130.879 Y57.95 E13.18911
G1 X131.59 Y58.617 E13.22154
G1 X132.217 Y59.321 E13.25289
G1 X132.919 Y60.289 E13.29267
G1 X134.428 Y62.591 E13.38421
G1 X135.866 Y64.653 E13.46783
G1 X137.387 Y66.706 E13.55281
G1 X138.927 Y68.663 E13.63564
G1 X140.565 Y70.632 E13.72082
G1 X142.236 Y72.526 E13.80483
G1 X143.969 Y74.385 E13.88936
G1 X145.726 Y76.164 E13.97252
G1 X147.551 Y77.91 E14.05653
G1 X149.446 Y79.624 E14.14151
G1 X151.352 Y81.251 E14.22486
G1 X153.324 Y82.842 E14.30914
G1 X155.337 Y84.373 E14.39325
G1 X157.406 Y85.857 E14.47794
G1 X159.557 Y87.314 E14.56435
G1 X160.302 Y87.885 E14.59557
G1 X160.997 Y88.524 E14.62697
G1 X161.63 Y89.217 E14.65819
G1 X162.179 Y89.934 E14.68822
G1 X162.699 Y90.758 E14.72063
G1 X163.128 Y91.593 E14.75185
G1 X163.468 Y92.429 E14.78187
G1 X163.754 Y93.36 E14.81426
G1 X163.948 Y94.278 E14.84547
G1 X164.057 Y95.175 E14.87553
G1 X164.085 Y95.682 E14.89241
G1 X164.1 Y96.33 E14.91397
G1 X164.099 Y123.422 E15.81506
G1 X164.088 Y124.153 E15.83937
G1 X164.046 Y124.95 E15.86592
G1 X163.92 Y125.88 E15.89713
G1 X163.713 Y126.795 E15.92833
G1 X163.426 Y127.688 E15.95953
G1 X163.075 Y128.521 E15.9896
G1 X162.619 Y129.382 E16.022
G1 X162.107 Y130.168 E16.0532
G1 X161.55 Y130.879 E16.08324
G1 X160.883 Y131.59 E16.11567
G1 X160.182 Y132.214 E16.14688
G1 X159.915 Y132.412 E16.15794
G1 X159.839 Y132.483 E16.1614
G1 X159.423 Y132.779 E16.17838
G1 X158.406 Y133.468 E16.21923
G1 X156.273 Y134.955 E16.30572
G1 X154.253 Y136.451 E16.38932
G1 X152.263 Y138.012 E16.47344
G1 X150.321 Y139.629 E16.55749
G1 X148.407 Y141.316 E16.64235
G1 X146.556 Y143.042 E16.72653
G1 X144.783 Y144.791 E16.80936
G1 X143.011 Y146.641 E16.89456
G1 X141.325 Y148.506 E16.97818
G1 X139.669 Y150.444 E17.06297
G1 X138.096 Y152.393 E17.14627
G1 X136.566 Y154.404 E17.23032
G1 X135.09 Y156.461 E17.31452
G1 X133.658 Y158.582 E17.39964
G1 X132.806 Y159.883 E17.45137
G1 X132.272 Y160.611 E17.48139
G1 X131.504 Y161.469 E17.51969
G1 X130.783 Y162.13 E17.55223
G1 X130.066 Y162.679 E17.58226
G1 X129.242 Y163.199 E17.61467
G1 X128.407 Y163.628 E17.64589
G1 X127.536 Y163.98 E17.67714
G1 X126.544 Y164.278 E17.71159
G1 X125.659 Y164.458 E17.74163
G1 X124.286 Y164.587 E17.78749
G1 X123.67 Y164.6 E17.80799
G1 X96.556 Y164.599 E18.7098
G1 X95.84 Y164.588 E18.73362
G1 X95.05 Y164.546 E18.75993
G1 X94.12 Y164.42 E18.79115
G1 X93.205 Y164.213 E18.82235
G1 X92.312 Y163.926 E18.85355
G1 X91.479 Y163.575 E18.88361
G1 X90.618 Y163.119 E18.91602
G1 X89.832 Y162.607 E18.94722
G1 X89.121 Y162.05 E18.97726
G1 X88.41 Y161.383 E19.00968
G1 X87.784 Y160.68 E19.04099
G1 X87.118 Y159.768 E19.07855
G1 X85.565 Y157.399 E19.17277
G1 X84.134 Y155.347 E19.25597
G1 X82.606 Y153.285 E19.34133
G1 X81.073 Y151.337 E19.42378
G1 X79.435 Y149.368 E19.50897
G1 X77.757 Y147.466 E19.59333
G1 X76.031 Y145.615 E19.67751
G1 X74.266 Y143.828 E19.76104
G1 X72.449 Y142.09 E19.84467
G1 X70.546 Y140.369 E19.93001
G1 X68.648 Y138.749 E20.01301
G1 X66.667 Y137.151 E20.09766
G1 X64.663 Y135.627 E20.1814
G1 X62.594 Y134.143 E20.26608
G1 X60.443 Y132.686 E20.35249
G1 X59.698 Y132.115 E20.38371
G1 X59.003 Y131.476 E20.41512
G1 X58.37 Y130.783 E20.44633
G1 X57.821 Y130.066 E20.47637
G1 X57.301 Y129.242 E20.50878
G1 X56.872 Y128.407 E20.54
G1 X56.52 Y127.536 E20.57124
G1 X56.222 Y126.544 E20.6057
G1 X56.042 Y125.659 E20.63573
G1 X55.913 Y124.286 E20.6816
G1 X55.9 Y123.67 E20.70209
G1 X55.901 Y96.555 E21.60394
G1 X55.912 Y95.843 E21.62763
G1 X55.954 Y95.05 E21.65404
G1 X56.08 Y94.12 E21.68525
G1 X56.287 Y93.205 E21.71645
G1 X56.574 Y92.312 E21.74765
G1 X56.925 Y91.479 E21.77772
G1 X57.381 Y90.618 E21.81012
G1 X57.893 Y89.832 E21.84132
G1 X58.45 Y89.121 E21.87136
G1 X59.117 Y88.41 E21.90379
G1 X59.813 Y87.789 E21.93481
G1 X60.363 Y87.369 E21.95783
G1 X61.598 Y86.529 E22.00751
G1 X63.727 Y85.045 E22.09382
G1 X65.747 Y83.549 E22.17743
G1 X67.737 Y81.988 E22.26155
G1 X69.679 Y80.371 E22.3456
G1 X71.593 Y78.684 E22.43046
G1 X73.444 Y76.958 E22.51463
G1 X75.217 Y75.209 E22.59747
G1 X76.989 Y73.359 E22.68267
G1 X78.675 Y71.494 E22.76629
G1 X80.331 Y69.556 E22.85108
G1 X81.904 Y67.607 E22.93438
G1 X83.434 Y65.596 E23.01842
G1 X84.91 Y63.539 E23.10263
G1 X86.342 Y61.418 E23.18775
G1 X87.137 Y60.204 E23.23601
G0 F7500 X87.464 Y60.434
G1 F1500 X87.846 Y59.89 E23.25812
G1 X88.419 Y59.192 E23.28816
G1 X89.052 Y58.548 E23.31819
G1 X89.739 Y57.962 E23.34822
G1 X90.476 Y57.439 E23.37828
G1 X91.256 Y56.984 E23.40832
G1 X92.073 Y56.599 E23.43836
G1 X92.921 Y56.288 E23.4684
G1 X93.536 Y56.114 E23.48965
G1 X94.421 Y55.934 E23.51969
G1 X95.723 Y55.813 E23.56318
G1 X96.33 Y55.8 E23.58338
G1 X123.293 Y55.8 E24.48017
G1 X124.137 Y55.811 E24.50824
G1 X124.897 Y55.85 E24.53356
G1 X125.792 Y55.97 E24.56359
G1 X126.673 Y56.168 E24.59362
G1 X127.533 Y56.443 E24.62365
G1 X128.366 Y56.794 E24.65372
G1 X129.164 Y57.217 E24.68376
G1 X129.921 Y57.708 E24.71377
G1 X130.632 Y58.265 E24.74381
G1 X131.292 Y58.883 E24.77388
G1 X131.893 Y59.556 E24.80389
G1 X132.584 Y60.508 E24.84302
G1 X134.1 Y62.82 E24.93497
G1 X135.538 Y64.882 E25.01858
G1 X137.073 Y66.953 E25.10432
G1 X138.619 Y68.919 E25.18751
G1 X140.257 Y70.888 E25.2727
G1 X141.943 Y72.799 E25.35746
G1 X143.676 Y74.658 E25.44199
G1 X145.449 Y76.453 E25.5259
G1 X147.274 Y78.199 E25.60991
G1 X149.186 Y79.928 E25.69565
G1 X151.092 Y81.555 E25.779
G1 X153.082 Y83.16 E25.86403
G1 X155.104 Y84.698 E25.94853
G1 X157.173 Y86.182 E26.03321
G1 X159.314 Y87.632 E26.11922
G1 X160.032 Y88.18 E26.14926
G1 X160.702 Y88.794 E26.17948
G1 X161.312 Y89.46 E26.20952
G1 X161.861 Y90.177 E26.23956
G1 X162.343 Y90.941 E26.2696
G1 X162.757 Y91.744 E26.29965
G1 X163.097 Y92.58 E26.32967
G1 X163.363 Y93.443 E26.3597
G1 X163.551 Y94.326 E26.38973
G1 X163.66 Y95.223 E26.41979
G1 X163.685 Y95.691 E26.43537
G1 X163.7 Y96.33 E26.45663
G1 X163.699 Y123.416 E27.35752
G1 X163.689 Y124.133 E27.38137
G1 X163.65 Y124.897 E27.40681
G1 X163.53 Y125.792 E27.43684
G1 X163.332 Y126.673 E27.46688
G1 X163.057 Y127.533 E27.49691
G1 X162.706 Y128.366 E27.52697
G1 X162.283 Y129.164 E27.55701
G1 X161.792 Y129.921 E27.58702
G1 X161.235 Y130.632 E27.61706
G1 X160.617 Y131.292 E27.64714
G1 X159.944 Y131.893 E27.67715
G1 X159.6 Y132.148 E27.69139
G1 X159.607 Y132.157 E27.69177
G1 X159.199 Y132.448 E27.70844
G1 X158.177 Y133.14 E27.74949
G1 X156.044 Y134.627 E27.83597
G1 X154.006 Y136.136 E27.92031
G1 X152.016 Y137.697 E28.00443
G1 X150.065 Y139.322 E28.08888
G1 X148.134 Y141.023 E28.17447
G1 X146.283 Y142.749 E28.25865
G1 X144.502 Y144.506 E28.34186
G1 X142.722 Y146.364 E28.42744
G1 X141.028 Y148.238 E28.51146
G1 X139.365 Y150.184 E28.5966
G1 X137.785 Y152.142 E28.68028
G1 X136.241 Y154.171 E28.76508
G1 X134.765 Y156.228 E28.84929
G1 X133.323 Y158.363 E28.93498
G1 X132.483 Y159.646 E28.98599
G1 X131.949 Y160.374 E29.01601
G1 X131.206 Y161.202 E29.05302
G1 X130.54 Y161.812 E29.08305
G1 X129.823 Y162.361 E29.11309
G1 X129.059 Y162.843 E29.14314
G1 X128.256 Y163.257 E29.17318
G1 X127.42 Y163.597 E29.2032
G1 X126.464 Y163.886 E29.23642
G1 X125.579 Y164.066 E29.26646
G1 X124.277 Y164.187 E29.30995
G1 X123.67 Y164.2 E29.33014
G1 X96.562 Y164.199 E30.23176
G1 X95.861 Y164.189 E30.25507
G1 X95.103 Y164.15 E30.28032
G1 X94.208 Y164.03 E30.31035
G1 X93.327 Y163.832 E30.34039
G1 X92.467 Y163.557 E30.37042
G1 X91.634 Y163.206 E30.40048
G1 X90.836 Y162.783 E30.43052
G1 X90.079 Y162.292 E30.46053
G1 X89.368 Y161.735 E30.49057
G1 X88.708 Y161.117 E30.52065
G1 X88.107 Y160.444 E30.55066
G1 X87.453 Y159.549 E30.58752
G1 X85.9 Y157.18 E30.68174
G1 X84.462 Y155.118 E30.76535
G1 X82.927 Y153.047 E30.85109
G1 X81.381 Y151.081 E30.93428
G1 X79.743 Y149.112 E31.01946
G1 X78.057 Y147.201 E31.10423
G1 X76.324 Y145.342 E31.18876
G1 X74.551 Y143.547 E31.27267
G1 X72.726 Y141.801 E31.35668
G1 X70.814 Y140.072 E31.44241
G1 X68.908 Y138.445 E31.52576
G1 X66.918 Y136.84 E31.6108
G1 X64.896 Y135.302 E31.69529
G1 X62.827 Y133.818 E31.77998
G1 X60.686 Y132.368 E31.86598
G1 X59.968 Y131.82 E31.89602
G1 X59.298 Y131.206 E31.92625
G1 X58.688 Y130.54 E31.95629
G1 X58.139 Y129.823 E31.98632
G1 X57.657 Y129.059 E32.01637
G1 X57.243 Y128.256 E32.04642
G1 X56.903 Y127.42 E32.07644
G1 X56.614 Y126.464 E32.10965
G1 X56.434 Y125.579 E32.13969
G1 X56.313 Y124.277 E32.18318
G1 X56.3 Y123.67 E32.20338
G1 X56.301 Y96.561 E33.10503
G1 X56.311 Y95.863 E33.12824
G1 X56.35 Y95.103 E33.15355
G1 X56.47 Y94.208 E33.18359
G1 X56.668 Y93.327 E33.21362
G1 X56.943 Y92.467 E33.24365
G1 X57.294 Y91.634 E33.27372
G1 X57.717 Y90.836 E33.30376
G1 X58.208 Y90.079 E33.33377
G1 X58.765 Y89.368 E33.36381
G1 X59.383 Y88.708 E33.39388
G1 X60.056 Y88.107 E33.42389
G1 X60.588 Y87.7 E33.44617
G1 X61.823 Y86.86 E33.49585
G1 X63.956 Y85.373 E33.58233
G1 X65.994 Y83.864 E33.66667
G1 X67.984 Y82.303 E33.75079
G1 X69.935 Y80.678 E33.83524
G1 X71.866 Y78.977 E33.92083
G1 X73.717 Y77.251 E34.00501
G1 X75.498 Y75.494 E34.08822
G1 X77.278 Y73.636 E34.1738
G1 X78.972 Y71.762 E34.25782
G1 X80.635 Y69.816 E34.34296
G1 X82.215 Y67.858 E34.42664
G1 X83.759 Y65.829 E34.51144
G1 X85.235 Y63.772 E34.59565
G1 X86.677 Y61.637 E34.68134
G1 X87.464 Y60.434 E34.72915
G1 F2100 E33.22915
;MESH:Encoder Lid.stl(4)
G0 F7500 X95.335 Y66.424
G0 X96.424 Y66.424
G0 X97.572 Y92.428
G0 X110 Y92.6
;TYPE:WALL-INNER
G1 F2100 E34.72915
G1 F1200 X122.6 Y92.6 E35.14823
G1 X122.6 Y67.4 E35.98639
G1 X97.4 Y67.4 E36.82454
G1 X97.4 Y92.6 E37.6627
G1 X110 Y92.6 E38.08178
G0 F7500 X110 Y93
G1 F1200 X123 Y93 E38.51416
G1 X123 Y67 E39.37892
G1 X97 Y67 E40.24368
G1 X97 Y93 E41.10845
G1 X110 Y93 E41.54083
G0 F7500 X110 Y93.4
G1 F1200 X123.4 Y93.4 E41.98652
G1 X123.4 Y66.6 E42.87789
G1 X96.6 Y66.6 E43.76926
G1 X96.6 Y93.4 E44.66063
G1 X110 Y93.4 E45.10632
G0 F7500 X110 Y93.8
;TYPE:WALL-OUTER
G1 F1200 X123.8 Y93.8 E45.56531
