;FLAVOR:Marlin
;TIME:17715
;Filament used: 11.1118m
;Layer height: 0.2
;MINX:54.612
;MINY:41.5
;MINZ:0.2
;MAXX:165.356
;MAXY:178.5
;MAXZ:20
;TARGET_MACHINE.NAME:Creality Ender-5
;Generated with Cura_SteamEngine 5.12.0
M140 S75
M105
M190 S75
M104 S240
M105
M109 S240
M201 X500.00 Y500.00 Z100.00 E5000.00 ;Setup machine max acceleration
M203 X500.00 Y500.00 Z10.00 E50.00 ;Setup machine max feedrate
M204 P500.00 R1000.00 T500.00 ;Setup Print/Retract/Travel acceleration
M205 X8.00 Y8.00 Z0.40 E5.00 ;Setup Jerk
M220 S100 ;Reset Feedrate
M221 S100 ;Reset Flowrate

G28 ;Home

G92 E0 ;Reset Extruder
G1 Z2.0 F3000 ;Move Z Axis up
G1 X210 Y20 Z0.28 F5000.0 ;Move to start position
G1 X210 Y200.0 Z0.28 F1500.0 E15 ;Draw the first line
G1 X209.7 Y200.0 Z0.28 F5000.0 ;Move to side a little
G1 X209.7 Y20 Z0.28 F1500.0 E30 ;Draw the second line
G92 E0 ;Reset Extruder
G1 Z2.0 F3000 ;Move Z Axis up

M82 ;absolute extrusion mode
G92 E0
G92 E0
G1 F2100 E-1.5
;LAYER_COUNT:100
;LAYER:0
M107
G0 F7500 X66.086 Y46.43 Z0.2
;TYPE:SKIRT
G1 F2100 E0
G1 F1500 X66.72 Y45.599 E0.03476
G1 X67.38 Y44.88 E0.06723
G1 X68.098 Y44.225 E0.09955
G1 X68.841 Y43.656 E0.13068
G1 X69.486 Y43.238 E0.15624
G1 X69.767 Y43.07 E0.16713
G1 X70.624 Y42.61 E0.19948
G1 X71.518 Y42.226 E0.23184
G1 X72.376 Y41.942 E0.2619
G1 X73.395 Y41.704 E0.29671
G1 X74.353 Y41.571 E0.32888
G1 X75.178 Y41.522 E0.35636
G1 X76.388 Y41.5 E0.39661
G1 X143.892 Y41.5 E2.64181
G1 X144.766 Y41.513 E2.67088
G1 X145.593 Y41.558 E2.69843
G1 X146.557 Y41.69 E2.73079
G1 X147.506 Y41.906 E2.76316
G1 X148.432 Y42.205 E2.79552
G1 X148.927 Y42.414 E2.8134
G1 X149.545 Y42.692 E2.83593
G1 X150.319 Y43.113 E2.86524
G1 X151.111 Y43.615 E2.89643
G1 X151.912 Y44.229 E2.92999
G1 X152.629 Y44.889 E2.96241
G1 X153.285 Y45.608 E2.99478
G1 X153.833 Y46.326 E3.02482
G1 X154.262 Y46.986 E3.051
G1 X154.43 Y47.267 E3.06189
G1 X154.89 Y48.124 E3.09424
G1 X155.274 Y49.018 E3.1266
G1 X155.558 Y49.876 E3.15666
G1 X155.796 Y50.895 E3.19147
G1 X155.929 Y51.853 E3.22364
G1 X155.978 Y52.675 E3.25102
G1 X156 Y53.871 E3.29081
G1 X156 Y85.437 E4.3407
G1 X156.037 Y88.006 E4.42615
G1 X156.125 Y89.872 E4.48829
G1 X156.175 Y91.193 E4.53225
G1 X156.176 Y91.993 E4.55886
G1 X156.078 Y94.91 E4.65594
G1 X156.068 Y97.42 E4.73942
G1 X156.132 Y100.046 E4.82679
G1 X156.183 Y101.628 E4.87943
G1 X156.066 Y105.106 E4.99518
G1 X156.056 Y107.652 E5.07986
G1 X156.158 Y111.549 E5.20952
G1 X156.127 Y114.233 E5.29879
G1 X156.169 Y116.76 E5.38285
G1 X156.28 Y119.28 E5.46675
G1 X156.462 Y121.778 E5.55005
G1 X156.716 Y124.282 E5.63376
G1 X157.036 Y126.754 E5.71667
G1 X157.435 Y129.27 E5.8014
G1 X157.898 Y131.736 E5.88485
G1 X158.437 Y134.213 E5.96916
G1 X159.036 Y136.641 E6.05234
G1 X159.711 Y139.073 E6.13629
G1 X160.449 Y141.466 E6.21958
G1 X161.265 Y143.87 E6.30402
G1 X162.133 Y146.207 E6.38693
G1 X163.071 Y148.531 E6.47029
G1 X163.354 Y149.174 E6.49365
G1 X163.957 Y150.599 E6.54512
G1 X164.205 Y151.232 E6.56773
G1 X164.336 Y151.621 E6.58138
G1 X164.765 Y153.049 E6.63097
G1 X165.002 Y153.918 E6.66093
G1 X165.205 Y154.871 E6.69334
G1 X165.323 Y155.835 E6.72564
G1 X165.356 Y156.72 E6.7551
G1 X165.316 Y157.622 E6.78513
G1 X165.14 Y158.856 E6.82659
G1 X165.041 Y159.302 E6.84178
G1 X164.927 Y159.752 E6.85722
G1 X164.581 Y160.998 E6.90023
G1 X164.378 Y161.67 E6.92358
G1 X164.094 Y162.51 E6.95307
G1 X163.702 Y163.401 E6.98545
G1 X163.233 Y164.254 E7.01783
G1 X162.69 Y165.061 E7.05018
G1 X162.089 Y165.807 E7.08204
G1 X161.746 Y166.178 E7.09884
G1 X161.201 Y166.741 E7.12491
G1 X160.652 Y167.289 E7.15071
G1 X159.944 Y167.97 E7.18338
G1 X158.134 Y169.598 E7.26435
G1 X156.29 Y171.341 E7.34874
G1 X154.486 Y173.146 E7.43362
G1 X152.885 Y174.832 E7.51095
G1 X152.288 Y175.431 E7.53908
G1 X151.347 Y176.221 E7.57995
G1 X150.509 Y176.792 E7.61367
G1 X149.656 Y177.267 E7.64615
G1 X148.639 Y177.715 E7.68311
G1 X147.72 Y178.033 E7.71545
G1 X146.774 Y178.269 E7.74788
G1 X145.882 Y178.412 E7.77793
G1 X145.054 Y178.462 E7.80552
G1 X144.944 Y178.483 E7.80924
G1 X143.991 Y178.498 E7.84094
G1 X76.108 Y178.5 E10.09874
G1 X75.224 Y178.487 E10.12815
G1 X74.251 Y178.428 E10.16057
G1 X73.315 Y178.287 E10.19205
G1 X71.95 Y177.93 E10.23898
G1 X71.27 Y177.681 E10.26306
G1 X70.91 Y177.526 E10.2761
G1 X70.113 Y177.148 E10.30544
G1 X69.333 Y176.694 E10.33546
G1 X68.486 Y176.094 E10.36998
G1 X67.919 Y175.621 E10.39454
G1 X67.659 Y175.382 E10.40628
G1 X67.298 Y175.025 E10.42317
G1 X66.867 Y174.566 E10.44411
G1 X66.178 Y173.713 E10.48058
G1 X65.837 Y173.245 E10.49984
G1 X64.332 Y171.241 E10.5832
G1 X62.762 Y169.269 E10.66704
G1 X61.115 Y167.316 E10.75201
G1 X59.491 Y165.496 E10.83314
G1 X58.636 Y164.59 E10.87457
G1 X57.948 Y163.839 E10.90844
G1 X57.342 Y163.098 E10.94028
G1 X56.577 Y161.931 E10.98669
G1 X56.33 Y161.473 E11.004
G1 X55.891 Y160.504 E11.03938
G1 X55.668 Y159.89 E11.06111
G1 X55.509 Y159.401 E11.07821
G1 X55.005 Y157.649 E11.13885
G1 X54.79 Y156.7 E11.17121
G1 X54.657 Y155.734 E11.20364
G1 X54.612 Y154.761 E11.23604
G1 X54.653 Y153.789 E11.2684
G1 X54.774 Y152.857 E11.29966
G1 X55.006 Y151.814 E11.33519
G1 X55.267 Y150.873 E11.36767
G1 X55.612 Y149.739 E11.4071
G1 X55.907 Y148.908 E11.43643
G1 X56.142 Y148.325 E11.45733
G1 X56.805 Y146.749 E11.5142
G1 X57.714 Y144.401 E11.59794
G1 X58.552 Y142.042 E11.68121
G1 X59.323 Y139.656 E11.76461
G1 X60.03 Y137.243 E11.84824
G1 X60.677 Y134.774 E11.93313
G1 X61.233 Y132.374 E12.01507
G1 X61.744 Y129.855 E12.10056
G1 X62.172 Y127.389 E12.1838
G1 X62.526 Y124.928 E12.2665
G1 X62.817 Y122.41 E12.3508
G1 X63.038 Y119.871 E12.43557
G1 X63.181 Y117.407 E12.51766
G1 X63.257 Y114.882 E12.60168
G1 X63.263 Y112.361 E12.68553
G1 X63.235 Y111.468 E12.71525
G1 X63.207 Y109.73 E12.77306
G1 X63.263 Y108.024 E12.82983
G1 X63.322 Y105.451 E12.91543
G1 X63.309 Y102.915 E12.99978
G1 X63.207 Y99.738 E13.1055
G1 X63.261 Y98.093 E13.16025
G1 X63.322 Y95.554 E13.24472
G1 X63.312 Y93.05 E13.328
G1 X63.218 Y90.229 E13.42188
G1 X63.22 Y89.247 E13.45454
G1 X63.287 Y88.436 E13.48161
G1 X63.609 Y85.499 E13.57988
G1 X63.812 Y82.981 E13.6639
G1 X63.936 Y80.507 E13.74629
G1 X64 Y77.086 E13.86009
G1 X64.001 Y53.427 E14.64699
G1 X64.013 Y52.725 E14.67035
G1 X64.058 Y51.906 E14.69763
G1 X64.19 Y50.942 E14.72999
G1 X64.406 Y49.992 E14.76239
G1 X64.709 Y49.058 E14.79505
G1 X65.183 Y47.973 E14.83443
G1 X65.605 Y47.194 E14.8639
G1 X66.086 Y46.43 E14.89393
G0 F7500 X66.425 Y46.643
G1 F1500 X67.015 Y45.869 E14.9263
G1 X67.65 Y45.175 E14.95758
G1 X68.341 Y44.543 E14.98873
G1 X69.084 Y43.974 E15.01986
G1 X69.691 Y43.581 E15.04391
G1 X69.957 Y43.422 E15.05421
G1 X70.782 Y42.977 E15.08539
G1 X71.644 Y42.606 E15.1166
G1 X72.502 Y42.322 E15.14666
G1 X73.451 Y42.1 E15.17908
G1 X74.377 Y41.97 E15.21018
G1 X75.185 Y41.922 E15.2371
G1 X76.395 Y41.9 E15.27735
G1 X143.886 Y41.9 E17.52211
G1 X144.745 Y41.912 E17.55069
G1 X145.539 Y41.954 E17.57713
G1 X146.469 Y42.08 E17.60835
G1 X147.384 Y42.287 E17.63955
G1 X148.277 Y42.574 E17.67075
G1 X148.763 Y42.779 E17.68829
G1 X149.381 Y43.057 E17.71083
G1 X150.105 Y43.451 E17.73824
G1 X150.897 Y43.953 E17.76943
G1 X151.642 Y44.524 E17.80065
G1 X152.334 Y45.159 E17.83189
G1 X152.967 Y45.851 E17.86308
G1 X153.515 Y46.569 E17.89312
G1 X153.919 Y47.191 E17.91779
G1 X154.078 Y47.457 E17.9281
G1 X154.523 Y48.282 E17.95928
G1 X154.894 Y49.144 E17.99049
G1 X155.178 Y50.002 E18.02055
G1 X155.4 Y50.951 E18.05296
G1 X155.53 Y51.877 E18.08407
G1 X155.578 Y52.682 E18.11089
G1 X155.6 Y53.878 E18.15067
G1 X155.6 Y85.437 E19.20033
G1 X155.637 Y88.025 E19.28642
G1 X155.725 Y89.887 E19.34842
G1 X155.775 Y91.194 E19.39192
G1 X155.776 Y91.98 E19.41806
G1 X155.678 Y94.897 E19.51513
G1 X155.668 Y97.418 E19.59898
G1 X155.732 Y100.059 E19.68685
G1 X155.783 Y101.615 E19.73863
G1 X155.666 Y105.093 E19.85437
G1 X155.656 Y107.65 E19.93942
G1 X155.716 Y110.171 E20.02329
G1 X155.758 Y111.544 E20.06898
G1 X155.727 Y114.228 E20.15826
G1 X155.769 Y116.778 E20.24308
G1 X155.88 Y119.298 E20.32698
G1 X156.064 Y121.818 E20.41102
G1 X156.319 Y124.333 E20.4951
G1 X156.641 Y126.817 E20.57841
G1 X157.042 Y129.344 E20.66351
G1 X157.507 Y131.821 E20.74733
G1 X158.046 Y134.298 E20.83164
G1 X158.651 Y136.748 E20.91558
G1 X159.329 Y139.191 E20.9999
G1 X160.07 Y141.595 E21.08357
G1 X160.886 Y143.999 E21.16801
G1 X161.762 Y146.357 E21.25168
G1 X162.7 Y148.681 E21.33503
G1 X162.986 Y149.33 E21.35862
G1 X163.585 Y150.745 E21.40973
G1 X163.826 Y151.36 E21.4317
G1 X163.953 Y151.736 E21.4449
G1 X164.379 Y153.155 E21.49417
G1 X164.611 Y154.002 E21.52338
G1 X164.808 Y154.92 E21.55461
G1 X164.923 Y155.85 E21.58578
G1 X164.956 Y156.702 E21.61414
G1 X164.916 Y157.604 E21.64417
G1 X164.749 Y158.77 E21.68334
G1 X164.653 Y159.204 E21.69813
G1 X164.542 Y159.645 E21.71325
G1 X164.198 Y160.883 E21.75599
G1 X163.999 Y161.543 E21.77892
G1 X163.728 Y162.349 E21.8072
G1 X163.351 Y163.209 E21.83843
G1 X162.901 Y164.031 E21.8696
G1 X162.378 Y164.81 E21.90081
G1 X161.795 Y165.535 E21.93175
G1 X161.452 Y165.906 E21.94855
G1 X160.918 Y166.458 E21.9741
G1 X160.375 Y167.001 E21.99964
G1 X159.677 Y167.673 E22.03187
G1 X157.859 Y169.307 E22.11317
G1 X156.015 Y171.05 E22.19756
G1 X154.203 Y172.863 E22.28282
G1 X152.595 Y174.557 E22.3605
G1 X152.005 Y175.148 E22.38828
G1 X151.121 Y175.891 E22.42668
G1 X150.314 Y176.443 E22.4592
G1 X149.494 Y176.901 E22.49044
G1 X148.508 Y177.337 E22.5263
G1 X147.622 Y177.645 E22.5575
G1 X146.711 Y177.874 E22.58874
G1 X145.819 Y178.017 E22.61879
G1 X144.983 Y178.066 E22.64664
G1 X144.937 Y178.083 E22.64827
G1 X143.988 Y178.099 E22.67984
G1 X76.114 Y178.1 E24.93734
G1 X75.248 Y178.088 E24.96614
G1 X74.311 Y178.032 E24.99736
G1 X73.375 Y177.891 E25.02885
G1 X72.052 Y177.543 E25.07435
G1 X71.428 Y177.313 E25.09647
G1 X71.081 Y177.164 E25.10903
G1 X70.314 Y176.802 E25.13724
G1 X69.534 Y176.348 E25.16725
G1 X68.742 Y175.787 E25.19953
G1 X68.19 Y175.327 E25.22343
G1 X67.94 Y175.097 E25.23473
G1 X67.589 Y174.751 E25.25112
G1 X67.178 Y174.314 E25.27108
G1 X66.501 Y173.477 E25.30688
G1 X66.16 Y173.009 E25.32614
G1 X64.652 Y171.001 E25.40967
G1 X63.068 Y169.011 E25.49426
G1 X61.421 Y167.058 E25.57923
G1 X59.782 Y165.222 E25.66109
G1 X58.931 Y164.32 E25.70234
G1 X58.257 Y163.585 E25.7355
G1 X57.676 Y162.878 E25.76594
G1 X56.929 Y161.741 E25.81119
G1 X56.682 Y161.283 E25.8285
G1 X56.267 Y160.367 E25.86194
G1 X56.048 Y159.766 E25.88322
G1 X55.893 Y159.29 E25.89987
G1 X55.395 Y157.56 E25.95975
G1 X55.186 Y156.645 E25.99096
G1 X55.057 Y155.715 E26.02219
G1 X55.012 Y154.777 E26.05342
G1 X55.05 Y153.84 E26.08461
G1 X55.165 Y152.944 E26.11466
G1 X55.392 Y151.921 E26.14951
G1 X55.65 Y150.989 E26.18168
G1 X55.989 Y149.873 E26.22047
G1 X56.278 Y149.058 E26.24923
G1 X56.511 Y148.48 E26.26996
G1 X57.174 Y146.904 E26.32683
G1 X58.087 Y144.545 E26.41096
G1 X58.929 Y142.176 E26.49458
G1 X59.704 Y139.779 E26.57837
G1 X60.414 Y137.355 E26.66238
G1 X61.064 Y134.875 E26.74765
G1 X61.623 Y132.464 E26.82997
G1 X62.136 Y129.935 E26.91579
G1 X62.566 Y127.457 E26.99944
G1 X62.922 Y124.985 E27.08251
G1 X63.214 Y122.456 E27.16719
G1 X63.436 Y119.906 E27.25232
G1 X63.581 Y117.419 E27.33518
G1 X63.657 Y114.894 E27.4192
G1 X63.663 Y112.362 E27.50341
G1 X63.635 Y111.461 E27.53339
G1 X63.607 Y109.743 E27.59054
G1 X63.663 Y108.037 E27.64732
G1 X63.722 Y105.46 E27.73305
G1 X63.709 Y102.913 E27.81776
G1 X63.607 Y99.751 E27.92299
G1 X63.661 Y98.106 E27.97773
G1 X63.722 Y95.564 E28.0623
G1 X63.712 Y93.048 E28.14598
G1 X63.618 Y90.229 E28.2398
G1 X63.619 Y89.28 E28.27136
G1 X63.685 Y88.48 E28.29806
G1 X64.007 Y85.543 E28.39633
G1 X64.21 Y83.013 E28.48075
G1 X64.336 Y80.514 E28.56397
G1 X64.4 Y77.093 E28.67777
G1 X64.401 Y53.433 E29.46471
G1 X64.412 Y52.746 E29.48756
G1 X64.454 Y51.96 E29.51374
G1 X64.58 Y51.03 E29.54496
G1 X64.787 Y50.115 E29.57616
G1 X65.076 Y49.218 E29.6075
G1 X65.535 Y48.163 E29.64577
G1 X65.944 Y47.407 E29.67436
G1 X66.425 Y46.643 E29.70438
G0 F7500 X66.764 Y46.856
G1 F1500 X67.311 Y46.138 E29.73441
G1 X67.92 Y45.47 E29.76447
G1 X68.585 Y44.86 E29.79449
G1 X69.301 Y44.31 E29.82451
G1 X69.897 Y43.924 E29.84813
G1 X70.147 Y43.774 E29.85783
G1 X70.941 Y43.344 E29.88786
G1 X71.77 Y42.986 E29.91789
G1 X72.628 Y42.702 E29.94795
G1 X73.507 Y42.496 E29.97798
G1 X74.401 Y42.369 E30.00802
G1 X75.192 Y42.322 E30.03437
G1 X76.402 Y42.3 E30.07462
G1 X143.881 Y42.3 E32.31898
G1 X144.725 Y42.311 E32.34706
G1 X145.486 Y42.35 E32.3724
G1 X146.381 Y42.47 E32.40244
G1 X147.262 Y42.668 E32.43247
G1 X148.122 Y42.943 E32.4625
G1 X148.599 Y43.144 E32.47971
G1 X149.217 Y43.422 E32.50225
G1 X149.891 Y43.789 E32.52778
G1 X150.654 Y44.271 E32.5578
G1 X151.372 Y44.819 E32.58784
G1 X152.039 Y45.429 E32.6179
G1 X152.649 Y46.094 E32.64791
G1 X153.197 Y46.812 E32.67796
G1 X153.576 Y47.397 E32.70114
G1 X153.726 Y47.647 E32.71084
G1 X154.156 Y48.441 E32.74087
G1 X154.514 Y49.27 E32.7709
G1 X154.798 Y50.128 E32.80096
G1 X155.004 Y51.007 E32.83099
G1 X155.131 Y51.901 E32.86102
G1 X155.178 Y52.689 E32.88728
G1 X155.2 Y53.885 E32.92707
G1 X155.2 Y85.437 E33.97649
G1 X155.237 Y88.044 E34.06321
G1 X155.325 Y89.902 E34.12507
G1 X155.375 Y91.195 E34.16811
G1 X155.376 Y91.967 E34.19379
G1 X155.278 Y94.884 E34.29086
G1 X155.268 Y97.416 E34.37508
G1 X155.332 Y100.072 E34.46344
G1 X155.383 Y101.602 E34.51436
G1 X155.266 Y105.08 E34.6301
G1 X155.256 Y107.648 E34.71552
G1 X155.316 Y110.183 E34.79985
G1 X155.358 Y111.539 E34.84498
G1 X155.327 Y114.223 E34.93425
G1 X155.369 Y116.796 E35.01984
G1 X155.48 Y119.316 E35.10374
G1 X155.666 Y121.858 E35.18851
G1 X155.922 Y124.384 E35.27296
G1 X156.246 Y126.88 E35.35667
G1 X156.649 Y129.418 E35.44214
G1 X157.116 Y131.906 E35.52634
G1 X157.655 Y134.383 E35.61065
G1 X158.266 Y136.855 E35.69535
G1 X158.947 Y139.309 E35.78005
G1 X159.691 Y141.724 E35.8641
G1 X160.507 Y144.128 E35.94854
G1 X161.391 Y146.507 E36.03295
G1 X162.334 Y148.843 E36.11674
G1 X162.618 Y149.486 E36.14012
G1 X163.213 Y150.891 E36.19086
G1 X163.447 Y151.488 E36.21219
G1 X163.57 Y151.851 E36.22494
G1 X163.993 Y153.261 E36.2739
G1 X164.22 Y154.087 E36.30239
G1 X164.411 Y154.97 E36.33244
G1 X164.523 Y155.866 E36.36247
G1 X164.556 Y156.684 E36.3897
G1 X164.516 Y157.586 E36.41973
G1 X164.358 Y158.684 E36.45663
G1 X164.265 Y159.107 E36.47103
G1 X164.157 Y159.538 E36.48581
G1 X163.815 Y160.768 E36.52827
G1 X163.62 Y161.416 E36.55078
G1 X163.361 Y162.189 E36.5779
G1 X163 Y163.017 E36.60794
G1 X162.568 Y163.809 E36.63794
G1 X162.066 Y164.56 E36.66799
G1 X161.501 Y165.264 E36.69801
G1 X161.165 Y165.628 E36.71449
G1 X160.635 Y166.175 E36.73982
G1 X160.097 Y166.713 E36.76513
G1 X159.41 Y167.375 E36.79686
G1 X157.584 Y169.016 E36.87851
G1 X155.74 Y170.759 E36.96291
G1 X153.92 Y172.58 E37.04854
G1 X152.305 Y174.282 E37.12658
G1 X151.722 Y174.865 E37.154
G1 X150.864 Y175.585 E37.19125
G1 X150.118 Y176.094 E37.22129
G1 X149.33 Y176.536 E37.25134
G1 X148.376 Y176.959 E37.28605
G1 X147.524 Y177.257 E37.31607
G1 X146.648 Y177.479 E37.34613
G1 X145.756 Y177.622 E37.37617
G1 X144.93 Y177.669 E37.40369
G1 X144.93 Y177.683 E37.40416
G1 X143.988 Y177.699 E37.43549
G1 X76.119 Y177.7 E39.69282
G1 X75.271 Y177.689 E39.72103
G1 X74.369 Y177.636 E39.75108
G1 X73.476 Y177.504 E39.78111
G1 X72.19 Y177.167 E39.82532
G1 X71.585 Y176.945 E39.84676
G1 X71.251 Y176.802 E39.85884
G1 X70.515 Y176.456 E39.88589
G1 X69.735 Y176.002 E39.91591
G1 X68.998 Y175.48 E39.94595
G1 X68.461 Y175.033 E39.96919
G1 X68.221 Y174.812 E39.98004
G1 X67.88 Y174.476 E39.99596
G1 X67.489 Y174.062 E40.0149
G1 X66.824 Y173.241 E40.05004
G1 X66.483 Y172.773 E40.0693
G1 X64.972 Y170.761 E40.15299
G1 X63.374 Y168.753 E40.23834
G1 X61.727 Y166.8 E40.32332
G1 X60.073 Y164.947 E40.40593
G1 X59.226 Y164.05 E40.44696
G1 X58.566 Y163.331 E40.47942
G1 X57.985 Y162.624 E40.50986
G1 X57.281 Y161.551 E40.55254
G1 X57.034 Y161.093 E40.56985
G1 X56.643 Y160.23 E40.60136
G1 X56.428 Y159.642 E40.62219
G1 X56.277 Y159.177 E40.63845
G1 X55.967 Y158.124 E40.67496
G1 X55.785 Y157.47 E40.69753
G1 X55.582 Y156.59 E40.72757
G1 X55.457 Y155.695 E40.75763
G1 X55.412 Y154.793 E40.78767
G1 X55.447 Y153.891 E40.81769
G1 X55.562 Y152.995 E40.84774
G1 X55.778 Y152.028 E40.88069
G1 X56.033 Y151.105 E40.91254
