;FLAVOR:Marlin
;TIME:34828
;Filament used: 23.9923m
;Layer height: 0.2
;MINX:36.505
;MINY:49.682
;MINZ:0.2
;MAXX:192.405
;MAXY:160.995
;MAXZ:35.2
;TARGET_MACHINE.NAME:Creality Ender-5
;Generated with Cura_SteamEngine 5.12.0
M140 S75
M105
M190 S75
M104 S240
M105
M109 S240
M201 X500.00 Y500.00 Z100.00 E5000.00 ;Setup machine max acceleration
M203 X500.00 Y500.00 Z10.00 E50.00 ;Setup machine max feedrate
M204 P500.00 R1000.00 T500.00 ;Setup Print/Retract/Travel acceleration
M205 X8.00 Y8.00 Z0.40 E5.00 ;Setup Jerk
M220 S100 ;Reset Feedrate
M221 S100 ;Reset Flowrate

G28 ;Home

G92 E0 ;Reset Extruder
G1 Z2.0 F3000 ;Move Z Axis up
G1 X210 Y20 Z0.28 F5000.0 ;Move to start position
G1 X210 Y200.0 Z0.28 F1500.0 E15 ;Draw the first line
G1 X209.7 Y200.0 Z0.28 F5000.0 ;Move to side a little
G1 X209.7 Y20 Z0.28 F1500.0 E30 ;Draw the second line
G92 E0 ;Reset Extruder
G1 Z2.0 F3000 ;Move Z Axis up
M82 ;absolute extrusion mode
G92 E0
G92 E0
G1 F2100 E-1.5
;LAYER_COUNT:176
;LAYER:0
M107
G0 F7500 X41.365 Y60.892 Z0.2
;TYPE:SKIRT
G1 F2100 E0
G1 F1500 X42.134 Y60.418 E0.03005
G1 X42.692 Y60.125 E0.05101
G1 X43.45 Y59.756 E0.07905
G1 X44.729 Y59.153 E0.12608
G1 X46.976 Y58.016 E0.20984
G1 X49.205 Y56.809 E0.29414
G1 X51.369 Y55.556 E0.37731
G1 X53.479 Y54.252 E0.45981
G1 X55.611 Y52.85 E0.54468
G1 X56.682 Y52.121 E0.58777
G1 X57.537 Y51.61 E0.6209
G1 X58.349 Y51.215 E0.65094
G1 X59.492 Y50.791 E0.69148
G1 X60.425 Y50.504 E0.72395
G1 X61.281 Y50.256 E0.75359
G1 X62.002 Y50.06 E0.77844
G1 X62.718 Y49.893 E0.8029
G1 X63.711 Y49.742 E0.8363
G1 X64.683 Y49.682 E0.86869
G1 X65.586 Y49.704 E0.89874
G1 X67.051 Y49.899 E0.94789
G1 X67.584 Y50.019 E0.96606
G1 X68.513 Y50.271 E0.99808
G1 X70.148 Y50.753 E1.05477
G1 X71.241 Y51.149 E1.09344
G1 X72.446 Y51.669 E1.13709
G1 X74.867 Y52.672 E1.22425
G1 X77.263 Y53.588 E1.30957
G1 X79.609 Y54.41 E1.39224
G1 X82.029 Y55.182 E1.47673
G1 X84.409 Y55.866 E1.55909
G1 X86.869 Y56.5 E1.64359
G1 X89.319 Y57.058 E1.72716
G1 X91.809 Y57.55 E1.81158
G1 X94.236 Y57.959 E1.89344
G1 X96.763 Y58.312 E1.97831
G1 X99.264 Y58.59 E2.062
G1 X101.802 Y58.801 E2.14671
G1 X104.242 Y58.931 E2.22798
G1 X107.95 Y59.005 E2.35133
G1 X171.946 Y59.006 E4.47985
G1 X172.679 Y59.018 E4.50423
G1 X173.651 Y59.077 E4.53662
G1 X174.614 Y59.223 E4.56901
G1 X175.561 Y59.454 E4.60143
G1 X176.449 Y59.754 E4.63261
G1 X177.341 Y60.144 E4.66499
G1 X178.224 Y60.631 E4.69853
G1 X178.975 Y61.133 E4.72857
G1 X179.79 Y61.791 E4.76341
G1 X180.488 Y62.469 E4.79578
G1 X181.124 Y63.206 E4.82815
G1 X181.694 Y63.996 E4.86056
G1 X182.156 Y64.772 E4.89059
G1 X182.61 Y65.714 E4.92537
G1 X182.939 Y66.592 E4.95656
G1 X183.208 Y67.565 E4.99013
G1 X183.383 Y68.522 E5.02249
G1 X183.473 Y69.473 E5.05426
G1 X183.505 Y70.492 E5.08817
G1 X183.617 Y73.1 E5.17499
G1 X183.798 Y75.62 E5.25903
G1 X184.047 Y78.105 E5.34209
G1 X184.373 Y80.631 E5.4268
G1 X184.76 Y83.086 E5.50947
G1 X185.221 Y85.557 E5.59307
G1 X185.766 Y88.069 E5.67856
G1 X186.355 Y90.462 E5.76053
G1 X187.03 Y92.911 E5.84502
G1 X187.771 Y95.322 E5.92891
G1 X188.564 Y97.666 E6.01122
G1 X189.456 Y100.078 E6.09675
G1 X190.381 Y102.374 E6.17908
G1 X191.037 Y103.917 E6.23484
G1 X191.344 Y104.762 E6.26475
G1 X191.754 Y106.082 E6.31072
G1 X191.989 Y106.901 E6.33906
G1 X192.213 Y107.848 E6.37142
G1 X192.345 Y108.742 E6.40148
G1 X192.405 Y109.784 E6.4362
G1 X192.371 Y110.757 E6.46858
G1 X192.252 Y111.729 E6.50115
G1 X192.025 Y112.763 E6.53636
G1 X191.766 Y113.72 E6.56933
G1 X191.367 Y115.059 E6.6158
G1 X190.956 Y116.177 E6.65542
G1 X189.82 Y118.895 E6.7534
G1 X188.936 Y121.198 E6.83545
G1 X188.09 Y123.608 E6.9204
G1 X187.325 Y126.001 E7.00396
G1 X186.627 Y128.413 E7.08748
G1 X185.999 Y130.842 E7.17092
G1 X185.433 Y133.318 E7.2554
G1 X184.946 Y135.761 E7.33825
G1 X184.518 Y138.279 E7.4232
G1 X184.175 Y140.725 E7.50535
G1 X183.892 Y143.248 E7.58979
G1 X183.68 Y145.759 E7.67361
G1 X183.545 Y148.239 E7.75621
G1 X183.476 Y150.458 E7.83005
G1 X183.404 Y151.317 E7.85872
G1 X183.229 Y152.346 E7.89344
G1 X182.988 Y153.254 E7.92469
G1 X182.645 Y154.201 E7.95819
G1 X182.233 Y155.084 E7.99059
G1 X181.782 Y155.866 E8.02062
G1 X181.18 Y156.722 E8.05542
G1 X180.551 Y157.464 E8.08778
G1 X179.858 Y158.149 E8.12019
G1 X179.107 Y158.768 E8.15256
G1 X178.304 Y159.32 E8.18497
G1 X177.455 Y159.798 E8.21737
G1 X176.568 Y160.199 E8.24975
G1 X175.649 Y160.521 E8.28214
G1 X174.705 Y160.759 E8.31452
G1 X173.743 Y160.913 E8.34692
G1 X172.789 Y160.982 E8.37873
G1 X172.165 Y160.995 E8.39949
G1 X48.054 Y160.994 E12.52744
G1 X47.321 Y160.982 E12.55182
G1 X46.349 Y160.923 E12.58421
G1 X45.386 Y160.777 E12.61661
G1 X44.439 Y160.546 E12.64903
G1 X43.551 Y160.246 E12.6802
G1 X42.659 Y159.856 E12.71258
G1 X41.776 Y159.369 E12.74612
G1 X41.025 Y158.867 E12.77617
G1 X40.21 Y158.209 E12.81101
G1 X39.512 Y157.531 E12.84337
G1 X38.876 Y156.794 E12.87575
G1 X38.306 Y156.004 E12.90815
G1 X37.844 Y155.228 E12.93819
G1 X37.39 Y154.286 E12.97297
G1 X37.061 Y153.408 E13.00415
G1 X36.792 Y152.435 E13.03773
G1 X36.615 Y151.468 E13.07043
G1 X36.519 Y150.303 E13.10931
G1 X36.505 Y149.653 E13.13093
G1 X36.506 Y70.514 E15.7631
G1 X36.518 Y69.819 E15.78622
G1 X36.563 Y69.003 E15.8134
G1 X36.695 Y68.039 E15.84577
G1 X36.911 Y67.09 E15.87814
G1 X37.21 Y66.164 E15.9105
G1 X37.561 Y65.331 E15.94057
G1 X38.051 Y64.407 E15.97535
G1 X38.583 Y63.592 E16.00772
G1 X39.163 Y62.854 E16.03894
G1 X39.856 Y62.118 E16.07257
G1 X40.583 Y61.472 E16.10491
G1 X41.365 Y60.892 E16.1373
G0 F7500 X41.575 Y61.233
G1 F1500 X42.344 Y60.759 E16.16734
G1 X42.867 Y60.485 E16.18698
G1 X43.621 Y60.118 E16.21487
G1 X44.9 Y59.515 E16.2619
G1 X47.157 Y58.373 E16.34603
G1 X49.395 Y57.161 E16.43068
G1 X51.569 Y55.902 E16.51424
G1 X53.699 Y54.586 E16.59751
G1 X55.836 Y53.181 E16.68258
G1 X56.907 Y52.452 E16.72567
G1 X57.712 Y51.97 E16.75687
G1 X58.524 Y51.575 E16.78691
G1 X59.631 Y51.166 E16.82616
G1 X60.536 Y50.888 E16.85765
G1 X61.386 Y50.642 E16.88708
G1 X62.093 Y50.45 E16.91145
G1 X62.809 Y50.283 E16.9359
G1 X63.736 Y50.141 E16.96709
G1 X64.673 Y50.082 E16.99832
G1 X65.576 Y50.104 E17.02836
G1 X66.963 Y50.289 E17.0749
G1 X67.479 Y50.405 E17.09249
G1 X68.4 Y50.655 E17.12423
G1 X70.035 Y51.137 E17.18093
G1 X71.083 Y51.516 E17.21799
G1 X72.293 Y52.038 E17.26182
G1 X74.724 Y53.046 E17.34935
G1 X77.125 Y53.964 E17.43485
G1 X79.477 Y54.788 E17.51774
G1 X81.907 Y55.563 E17.60257
G1 X84.304 Y56.252 E17.68552
G1 X86.78 Y56.89 E17.77057
G1 X89.23 Y57.448 E17.85414
G1 X91.73 Y57.942 E17.9389
G1 X94.181 Y58.355 E18.02157
G1 X96.719 Y58.71 E18.1068
G1 X99.223 Y58.988 E18.1906
G1 X101.769 Y59.199 E18.27557
G1 X104.234 Y59.331 E18.35767
G1 X107.942 Y59.405 E18.48103
G1 X171.94 Y59.406 E20.60961
G1 X172.655 Y59.417 E20.63339
G1 X173.592 Y59.473 E20.66461
G1 X174.52 Y59.612 E20.69582
G1 X175.433 Y59.833 E20.72707
G1 X176.289 Y60.121 E20.7571
G1 X177.181 Y60.511 E20.78948
G1 X178.002 Y60.964 E20.82067
G1 X178.753 Y61.466 E20.85072
G1 X179.512 Y62.078 E20.88315
G1 X180.186 Y62.731 E20.91436
G1 X180.8 Y63.44 E20.94555
G1 X181.35 Y64.201 E20.97678
G1 X181.812 Y64.977 E21.00682
G1 X182.235 Y65.854 E21.03921
G1 X182.564 Y66.732 E21.07039
G1 X182.815 Y67.637 E21.10163
G1 X182.985 Y68.56 E21.13284
G1 X183.073 Y69.485 E21.16375
G1 X183.105 Y70.509 E21.19782
G1 X183.218 Y73.129 E21.28505
G1 X183.4 Y75.66 E21.36944
G1 X183.65 Y78.156 E21.45288
G1 X183.976 Y80.682 E21.53759
G1 X184.367 Y83.159 E21.62099
G1 X184.83 Y85.642 E21.705
G1 X185.375 Y88.154 E21.7905
G1 X185.969 Y90.568 E21.87318
G1 X186.644 Y93.017 E21.95767
G1 X187.392 Y95.45 E22.04233
G1 X188.189 Y97.805 E22.12502
G1 X189.085 Y100.227 E22.21092
G1 X190.013 Y102.531 E22.29353
G1 X190.661 Y104.054 E22.34858
G1 X190.962 Y104.881 E22.37785
G1 X191.37 Y106.193 E22.42355
G1 X191.6 Y106.993 E22.45123
G1 X191.817 Y107.906 E22.48245
G1 X191.949 Y108.8 E22.5125
G1 X192.005 Y109.771 E22.54485
G1 X191.974 Y110.709 E22.57607
G1 X191.861 Y111.644 E22.60739
G1 X191.639 Y112.659 E22.64195
G1 X191.383 Y113.606 E22.67458
G1 X190.992 Y114.921 E22.72021
G1 X190.587 Y116.023 E22.75926
G1 X189.451 Y118.741 E22.85724
G1 X188.563 Y121.055 E22.93967
G1 X187.713 Y123.475 E23.02498
G1 X186.944 Y125.879 E23.10893
G1 X186.243 Y128.302 E23.19283
G1 X185.612 Y130.742 E23.27665
G1 X185.043 Y133.229 E23.36151
G1 X184.554 Y135.683 E23.44473
G1 X184.124 Y138.212 E23.53005
G1 X183.777 Y140.68 E23.61295
G1 X183.494 Y143.203 E23.69739
G1 X183.282 Y145.726 E23.7816
G1 X183.145 Y148.227 E23.86491
G1 X183.077 Y150.425 E23.93805
G1 X183.005 Y151.284 E23.96672
G1 X182.842 Y152.243 E23.99907
G1 X182.601 Y153.151 E24.03032
G1 X182.282 Y154.032 E24.06148
G1 X181.886 Y154.884 E24.09273
G1 X181.435 Y155.666 E24.12276
G1 X180.875 Y156.464 E24.15518
G1 X180.269 Y157.18 E24.18638
G1 X179.603 Y157.841 E24.21759
G1 X178.88 Y158.439 E24.2488
G1 X178.107 Y158.972 E24.28002
G1 X177.29 Y159.434 E24.31124
G1 X176.436 Y159.822 E24.34244
G1 X175.55 Y160.133 E24.37367
G1 X174.641 Y160.364 E24.40487
G1 X173.714 Y160.514 E24.4361
G1 X172.781 Y160.582 E24.46721
G1 X172.165 Y160.595 E24.48771
G1 X48.06 Y160.594 E28.61546
G1 X47.345 Y160.583 E28.63924
G1 X46.408 Y160.527 E28.67046
G1 X45.48 Y160.388 E28.70167
G1 X44.567 Y160.167 E28.73291
G1 X43.711 Y159.879 E28.76295
G1 X42.819 Y159.489 E28.79533
G1 X41.998 Y159.036 E28.82652
G1 X41.247 Y158.534 E28.85656
G1 X40.488 Y157.922 E28.88899
G1 X39.814 Y157.269 E28.92021
G1 X39.2 Y156.56 E28.9514
G1 X38.65 Y155.799 E28.98263
G1 X38.188 Y155.023 E29.01267
G1 X37.765 Y154.146 E29.04505
G1 X37.436 Y153.268 E29.07624
G1 X37.185 Y152.363 E29.10747
G1 X37.014 Y151.435 E29.13886
G1 X36.918 Y150.27 E29.17774
G1 X36.905 Y149.653 E29.19826
G1 X36.906 Y70.52 E31.83024
G1 X36.917 Y69.84 E31.85286
G1 X36.959 Y69.057 E31.87894
G1 X37.085 Y68.127 E31.91015
G1 X37.292 Y67.212 E31.94136
G1 X37.579 Y66.319 E31.97255
G1 X37.93 Y65.486 E32.00262
G1 X38.386 Y64.625 E32.03502
G1 X38.898 Y63.839 E32.06622
G1 X39.455 Y63.128 E32.09626
G1 X40.122 Y62.417 E32.12869
G1 X40.822 Y61.793 E32.15988
G1 X41.575 Y61.233 E32.19109
G0 F7500 X41.785 Y61.574
G1 F1500 X42.554 Y61.1 E32.22114
G1 X43.042 Y60.845 E32.23945
G1 X43.792 Y60.48 E32.26719
G1 X45.071 Y59.877 E32.31422
G1 X47.338 Y58.73 E32.39872
G1 X49.585 Y57.513 E32.48372
G1 X51.769 Y56.248 E32.56766
G1 X53.919 Y54.92 E32.65171
G1 X56.061 Y53.512 E32.73697
G1 X57.113 Y52.795 E32.77931
G1 X57.887 Y52.33 E32.80934
G1 X58.699 Y51.935 E32.83938
G1 X59.749 Y51.548 E32.8766
G1 X60.647 Y51.272 E32.90784
G1 X61.491 Y51.028 E32.93707
G1 X62.185 Y50.839 E32.96099
G1 X62.87 Y50.678 E32.98439
G1 X63.762 Y50.54 E33.01441
G1 X64.663 Y50.482 E33.04444
G1 X65.566 Y50.504 E33.07449
G1 X66.875 Y50.679 E33.11841
G1 X67.374 Y50.791 E33.13542
G1 X68.287 Y51.039 E33.16689
G1 X69.922 Y51.521 E33.22358
G1 X70.925 Y51.883 E33.25905
G1 X72.14 Y52.407 E33.30306
G1 X74.581 Y53.42 E33.39096
G1 X76.987 Y54.34 E33.47663
G1 X79.345 Y55.166 E33.55973
G1 X81.785 Y55.944 E33.64491
G1 X84.199 Y56.638 E33.72845
G1 X86.691 Y57.28 E33.81405
G1 X89.141 Y57.838 E33.89762
G1 X91.651 Y58.334 E33.98272
G1 X94.126 Y58.751 E34.0662
G1 X96.675 Y59.108 E34.1518
G1 X99.182 Y59.386 E34.2357
G1 X101.736 Y59.597 E34.32093
G1 X104.226 Y59.731 E34.40387
G1 X107.934 Y59.805 E34.52722
G1 X171.934 Y59.806 E36.65587
G1 X172.632 Y59.816 E36.67909
G1 X173.534 Y59.869 E36.70914
G1 X174.427 Y60.001 E36.73917
G1 X175.305 Y60.212 E36.7692
G1 X176.161 Y60.5 E36.79924
G1 X176.988 Y60.862 E36.82927
G1 X177.78 Y61.297 E36.85932
G1 X178.531 Y61.799 E36.88936
G1 X179.234 Y62.366 E36.9194
G1 X179.884 Y62.993 E36.94944
G1 X180.476 Y63.675 E36.97948
G1 X181.006 Y64.406 E37.00951
G1 X181.468 Y65.182 E37.03955
G1 X181.861 Y65.995 E37.06958
G1 X182.179 Y66.84 E37.09961
G1 X182.422 Y67.71 E37.12965
G1 X182.587 Y68.598 E37.1597
G1 X182.673 Y69.497 E37.18973
G1 X182.705 Y70.526 E37.22397
G1 X182.819 Y73.158 E37.3116
G1 X183.002 Y75.7 E37.39636
G1 X183.253 Y78.207 E37.48016
G1 X183.579 Y80.733 E37.56487
G1 X183.974 Y83.232 E37.64902
G1 X184.439 Y85.727 E37.73344
G1 X184.984 Y88.239 E37.81893
G1 X185.583 Y90.674 E37.90233
G1 X186.259 Y93.123 E37.98683
G1 X187.013 Y95.578 E38.07225
G1 X187.814 Y97.944 E38.15533
G1 X188.714 Y100.376 E38.24158
G1 X189.645 Y102.688 E38.32448
G1 X190.285 Y104.191 E38.37881
G1 X190.58 Y105 E38.40745
G1 X190.986 Y106.303 E38.45285
G1 X191.211 Y107.086 E38.47994
G1 X191.421 Y107.964 E38.50997
G1 X191.553 Y108.858 E38.54003
G1 X191.605 Y109.759 E38.57004
G1 X191.577 Y110.662 E38.60009
G1 X191.47 Y111.559 E38.63014
G1 X191.253 Y112.555 E38.66404
G1 X191 Y113.492 E38.69632
G1 X190.617 Y114.783 E38.74111
G1 X190.218 Y115.869 E38.77959
G1 X189.082 Y118.587 E38.87757
G1 X188.19 Y120.912 E38.9604
G1 X187.336 Y123.342 E39.04607
G1 X186.563 Y125.757 E39.1304
G1 X185.859 Y128.191 E39.21468
G1 X185.225 Y130.642 E39.29888
G1 X184.653 Y133.14 E39.38411
G1 X184.162 Y135.605 E39.46771
G1 X183.73 Y138.145 E39.5534
G1 X183.381 Y140.624 E39.63667
G1 X183.095 Y143.17 E39.72188
G1 X182.884 Y145.693 E39.80609
G1 X182.745 Y148.215 E39.8901
G1 X182.678 Y150.392 E39.96254
G1 X182.606 Y151.251 E39.99121
G1 X182.455 Y152.141 E40.02124
G1 X182.225 Y153.015 E40.0513
G1 X181.919 Y153.864 E40.08131
G1 X181.539 Y154.684 E40.11137
G1 X181.088 Y155.466 E40.1414
G1 X180.569 Y156.206 E40.17146
G1 X179.987 Y156.896 E40.20148
G1 X179.347 Y157.533 E40.23152
G1 X178.652 Y158.11 E40.26156
G1 X177.91 Y158.624 E40.29158
G1 X177.124 Y159.07 E40.32164
G1 X176.303 Y159.445 E40.35166
G1 X175.451 Y159.745 E40.3817
G1 X174.576 Y159.969 E40.41174
G1 X173.685 Y160.115 E40.44177
G1 X172.772 Y160.182 E40.47222
G1 X172.165 Y160.195 E40.49242
G1 X48.066 Y160.194 E44.61996
G1 X47.368 Y160.184 E44.64318
G1 X46.466 Y160.131 E44.67324
G1 X45.573 Y159.999 E44.70326
G1 X44.695 Y159.788 E44.73329
G1 X43.839 Y159.5 E44.76333
G1 X43.012 Y159.138 E44.79336
G1 X42.22 Y158.703 E44.82341
G1 X41.469 Y158.201 E44.85346
G1 X40.766 Y157.634 E44.8835
G1 X40.116 Y157.007 E44.91353
G1 X39.524 Y156.325 E44.94357
G1 X38.994 Y155.594 E44.9736
G1 X38.532 Y154.818 E45.00364
G1 X38.139 Y154.005 E45.03367
G1 X37.821 Y153.16 E45.0637
G1 X37.578 Y152.29 E45.09375
G1 X37.413 Y151.402 E45.12379
G1 X37.318 Y150.261 E45.16187
G1 X37.305 Y149.653 E45.1821
G1 X37.306 Y70.526 E47.81387
G1 X37.316 Y69.861 E47.83599
G1 X37.355 Y69.11 E47.861
G1 X37.475 Y68.215 E47.89104
G1 X37.673 Y67.334 E47.92107
G1 X37.948 Y66.474 E47.9511
G1 X38.299 Y65.641 E47.98117
G1 X38.722 Y64.843 E48.0112
G1 X39.213 Y64.086 E48.04122
G1 X39.77 Y63.375 E48.07126
G1 X40.388 Y62.715 E48.10133
G1 X41.061 Y62.114 E48.13134
G1 X41.785 Y61.574 E48.16138
G1 F2100 E46.66138
G0 F7500 X62.848 Y62.044
G1 F2100 E48.16138
G1 F1500 X64.866 Y61.456 E48.23129
G1 X66.885 Y62.044 E48.30123
G1 X68.346 Y63.646 E48.37335
G1 X68.952 Y65.798 E48.4477
G1 X68.369 Y67.881 E48.51965
G1 X66.902 Y69.348 E48.58865
G1 X64.864 Y69.919 E48.65905
G1 X62.916 Y69.349 E48.72655
G1 X61.362 Y67.795 E48.79965
G1 X60.78 Y65.801 E48.86874
G1 X61.387 Y63.646 E48.9432
G1 X62.848 Y62.044 E49.01531
G0 F7500 X63.067 Y62.397
G1 F1500 X64.866 Y61.873 E49.07764
G1 X66.666 Y62.397 E49.13999
G1 X67.986 Y63.844 E49.20513
G1 X68.536 Y65.799 E49.27268
G1 X68.012 Y67.672 E49.33737
G1 X66.693 Y68.991 E49.39941
G1 X64.867 Y69.503 E49.46249
G1 X63.127 Y68.994 E49.52278
G1 X61.717 Y67.584 E49.58911
G1 X61.196 Y65.799 E49.65095
G1 X61.747 Y63.844 E49.71851
G1 X63.067 Y62.397 E49.78365
G0 F7500 X63.288 Y62.749
G1 F1500 X64.866 Y62.29 E49.83831
G1 X66.445 Y62.749 E49.89301
G1 X67.627 Y64.045 E49.95135
G1 X68.121 Y65.798 E50.01192
G1 X67.655 Y67.463 E50.06943
G1 X66.484 Y68.634 E50.12451
G1 X64.87 Y69.087 E50.18026
G1 X63.337 Y68.638 E50.23339
G1 X62.072 Y67.373 E50.2929
G1 X61.612 Y65.797 E50.3475
G1 X62.106 Y64.045 E50.40804
G1 X63.288 Y62.749 E50.46639
G0 F7500 X63.507 Y63.102
G1 F1500 X64.867 Y62.706 E50.5135
G1 X66.225 Y63.102 E50.56055
G1 X67.268 Y64.244 E50.61199
G1 X67.706 Y65.8 E50.66575
G1 X67.299 Y67.253 E50.71594
G1 X66.274 Y68.278 E50.76415
G1 X64.873 Y68.671 E50.81255
G1 X63.548 Y68.283 E50.85847
G1 X62.428 Y67.163 E50.91115
G1 X62.029 Y65.795 E50.95854
G1 X62.465 Y64.244 E51.01213
G1 X63.507 Y63.102 E51.06355
G0 F7500 X63.727 Y63.455
